G21 (Programming in millimeters)
G90 (Absolute programming)
G92 X0 Y0 Z10 (Tell the machine it is at 0, 0, 10)
G00 X0 Y-0.5 Z10 (Starting position)

G01 X0.722222 Y-0.5 Z10 F1000
G01 X50.055556 Y-0.5 Z10 F1000
G01 X50.277778 Y-0.5 Z9.960784 F1000
G01 X50.5 Y-0.5 Z10 F1000
G01 X99.611111 Y-0.5 Z10 F1000
G01 X99.611111 Y-0.722222 Z10 F1000
G01 X99.611111 Y-0.944444 Z10 F1000
G01 X99.611111 Y-1.166667 Z10 F1000
G01 X0.277778 Y-1.166667 Z10 F1000
G01 X0.277778 Y-1.388889 Z10 F1000
G01 X0.277778 Y-1.611111 Z10 F1000
G01 X0.277778 Y-1.833333 Z10 F1000
G01 X47.388889 Y-1.833333 Z10 F1000
G01 X47.611111 Y-1.833333 Z9.411765 F1000
G01 X47.833333 Y-1.833333 Z8.27451 F1000
G01 X50.055556 Y-1.833333 Z8.27451 F1000
G01 X50.277778 Y-1.833333 Z8.392157 F1000
G01 X50.5 Y-1.833333 Z8.431373 F1000
G01 X51.166667 Y-1.833333 Z8.431373 F1000
G01 X51.388889 Y-1.833333 Z8.941176 F1000
G01 X51.611111 Y-1.833333 Z9.843137 F1000
G01 X51.833333 Y-1.833333 Z10 F1000
G01 X99.611111 Y-1.833333 Z10 F1000
G01 X99.611111 Y-2.055556 Z10 F1000
G01 X99.611111 Y-2.277778 Z10 F1000
G01 X99.611111 Y-2.5 Z10 F1000
G01 X52.055556 Y-2.5 Z10 F1000
G01 X51.833333 Y-2.5 Z9.921569 F1000
G01 X51.611111 Y-2.5 Z9.019608 F1000
G01 X51.388889 Y-2.5 Z4.588235 F1000
G01 X51.166667 Y-2.5 Z1.764706 F1000
G01 X50.944444 Y-2.5 Z1.647059 F1000
G01 X50.5 Y-2.5 Z1.647059 F1000
G01 X50.277778 Y-2.5 Z1.607843 F1000
G01 X49.833333 Y-2.5 Z1.607843 F1000
G01 X49.611111 Y-2.5 Z1.568627 F1000
G01 X49.166667 Y-2.5 Z1.568627 F1000
G01 X48.944444 Y-2.5 Z1.529412 F1000
G01 X48.722222 Y-2.5 Z1.529412 F1000
G01 X48.5 Y-2.5 Z1.568627 F1000
G01 X48.055556 Y-2.5 Z1.568627 F1000
G01 X47.833333 Y-2.5 Z3.215686 F1000
G01 X47.611111 Y-2.5 Z7.411765 F1000
G01 X47.388889 Y-2.5 Z9.960784 F1000
G01 X47.166667 Y-2.5 Z10 F1000
G01 X0.277778 Y-2.5 Z10 F1000
G01 X0.277778 Y-2.722222 Z10 F1000
G01 X0.277778 Y-2.944444 Z10 F1000
G01 X0.277778 Y-3.166667 Z10 F1000
G01 X45.833333 Y-3.166667 Z10 F1000
G01 X46.055556 Y-3.166667 Z9.960784 F1000
G01 X46.277778 Y-3.166667 Z10 F1000
G01 X47.166667 Y-3.166667 Z10 F1000
G01 X47.388889 Y-3.166667 Z9.960784 F1000
G01 X47.611111 Y-3.166667 Z7.490196 F1000
G01 X47.833333 Y-3.166667 Z3.215686 F1000
G01 X48.055556 Y-3.166667 Z1.647059 F1000
G01 X48.277778 Y-3.166667 Z1.647059 F1000
G01 X48.5 Y-3.166667 Z1.607843 F1000
G01 X48.722222 Y-3.166667 Z1.568627 F1000
G01 X48.944444 Y-3.166667 Z1.529412 F1000
G01 X49.166667 Y-3.166667 Z1.568627 F1000
G01 X50.277778 Y-3.166667 Z1.568627 F1000
G01 X50.5 Y-3.166667 Z1.686275 F1000
G01 X50.944444 Y-3.166667 Z1.686275 F1000
G01 X51.166667 Y-3.166667 Z1.764706 F1000
G01 X51.388889 Y-3.166667 Z4.901961 F1000
G01 X51.611111 Y-3.166667 Z9.019608 F1000
G01 X51.833333 Y-3.166667 Z10 F1000
G01 X99.611111 Y-3.166667 Z10 F1000
G01 X99.611111 Y-3.388889 Z10 F1000
G01 X99.611111 Y-3.611111 Z10 F1000
G01 X99.611111 Y-3.833333 Z10 F1000
G01 X51.833333 Y-3.833333 Z10 F1000
G01 X51.611111 Y-3.833333 Z9.019608 F1000
G01 X51.388889 Y-3.833333 Z4.901961 F1000
G01 X51.166667 Y-3.833333 Z1.764706 F1000
G01 X50.944444 Y-3.833333 Z1.686275 F1000
G01 X49.833333 Y-3.833333 Z1.686275 F1000
G01 X49.611111 Y-3.833333 Z1.607843 F1000
G01 X49.388889 Y-3.833333 Z1.568627 F1000
G01 X49.166667 Y-3.833333 Z1.529412 F1000
G01 X48.944444 Y-3.833333 Z1.529412 F1000
G01 X48.722222 Y-3.833333 Z1.568627 F1000
G01 X48.5 Y-3.833333 Z1.607843 F1000
G01 X48.277778 Y-3.833333 Z1.647059 F1000
G01 X48.055556 Y-3.833333 Z1.647059 F1000
G01 X47.833333 Y-3.833333 Z3.215686 F1000
G01 X47.611111 Y-3.833333 Z7.490196 F1000
G01 X47.388889 Y-3.833333 Z9.960784 F1000
G01 X47.166667 Y-3.833333 Z10 F1000
G01 X0.277778 Y-3.833333 Z10 F1000
G01 X0.277778 Y-4.055556 Z10 F1000
G01 X0.277778 Y-4.277778 Z10 F1000
G01 X0.277778 Y-4.5 Z10 F1000
G01 X47.166667 Y-4.5 Z10 F1000
G01 X47.388889 Y-4.5 Z9.921569 F1000
G01 X47.611111 Y-4.5 Z7.411765 F1000
G01 X47.833333 Y-4.5 Z3.058824 F1000
G01 X48.055556 Y-4.5 Z1.686275 F1000
G01 X48.277778 Y-4.5 Z1.686275 F1000
G01 X48.5 Y-4.5 Z1.607843 F1000
G01 X48.722222 Y-4.5 Z1.568627 F1000
G01 X48.944444 Y-4.5 Z1.529412 F1000
G01 X49.166667 Y-4.5 Z1.529412 F1000
G01 X49.388889 Y-4.5 Z1.607843 F1000
G01 X49.611111 Y-4.5 Z1.647059 F1000
G01 X49.833333 Y-4.5 Z1.686275 F1000
G01 X50.277778 Y-4.5 Z1.686275 F1000
G01 X50.5 Y-4.5 Z1.72549 F1000
G01 X51.166667 Y-4.5 Z1.72549 F1000
G01 X51.388889 Y-4.5 Z4.901961 F1000
G01 X51.611111 Y-4.5 Z8.901961 F1000
G01 X51.833333 Y-4.5 Z10 F1000
G01 X99.611111 Y-4.5 Z10 F1000
G01 X99.611111 Y-4.722222 Z10 F1000
G01 X99.611111 Y-4.944444 Z10 F1000
G01 X99.611111 Y-5.166667 Z10 F1000
G01 X51.833333 Y-5.166667 Z10 F1000
G01 X51.611111 Y-5.166667 Z8.901961 F1000
G01 X51.388889 Y-5.166667 Z5.372549 F1000
G01 X51.166667 Y-5.166667 Z2 F1000
G01 X50.944444 Y-5.166667 Z1.764706 F1000
G01 X50.5 Y-5.166667 Z1.764706 F1000
G01 X50.277778 Y-5.166667 Z1.647059 F1000
G01 X49.388889 Y-5.166667 Z1.647059 F1000
G01 X49.166667 Y-5.166667 Z1.529412 F1000
G01 X48.944444 Y-5.166667 Z1.529412 F1000
G01 X48.722222 Y-5.166667 Z1.568627 F1000
G01 X48.5 Y-5.166667 Z1.607843 F1000
G01 X48.277778 Y-5.166667 Z1.686275 F1000
G01 X48.055556 Y-5.166667 Z1.686275 F1000
G01 X47.833333 Y-5.166667 Z3.137255 F1000
G01 X47.611111 Y-5.166667 Z7.490196 F1000
G01 X47.388889 Y-5.166667 Z9.921569 F1000
G01 X46.944444 Y-5.166667 Z9.921569 F1000
G01 X46.722222 Y-5.166667 Z10 F1000
G01 X0.277778 Y-5.166667 Z10 F1000
G01 X0.277778 Y-5.388889 Z10 F1000
G01 X0.277778 Y-5.611111 Z10 F1000
G01 X0.277778 Y-5.833333 Z10 F1000
G01 X45.833333 Y-5.833333 Z10 F1000
G01 X46.055556 Y-5.833333 Z9.960784 F1000
G01 X46.277778 Y-5.833333 Z9.960784 F1000
G01 X46.5 Y-5.833333 Z10 F1000
G01 X47.388889 Y-5.833333 Z10 F1000
G01 X47.611111 Y-5.833333 Z9.647059 F1000
G01 X47.833333 Y-5.833333 Z8.235294 F1000
G01 X48.055556 Y-5.833333 Z8.117647 F1000
G01 X49.166667 Y-5.833333 Z8.117647 F1000
G01 X49.388889 Y-5.833333 Z8.196078 F1000
G01 X50.5 Y-5.833333 Z8.196078 F1000
G01 X50.722222 Y-5.833333 Z8.156863 F1000
G01 X50.944444 Y-5.833333 Z8.117647 F1000
G01 X51.166667 Y-5.833333 Z8.078431 F1000
G01 X51.388889 Y-5.833333 Z8.862745 F1000
G01 X51.611111 Y-5.833333 Z9.843137 F1000
G01 X51.833333 Y-5.833333 Z10 F1000
G01 X99.611111 Y-5.833333 Z10 F1000
G01 X99.611111 Y-6.055556 Z10 F1000
G01 X99.611111 Y-6.277778 Z10 F1000
G01 X99.611111 Y-6.5 Z10 F1000
G01 X0.277778 Y-6.5 Z10 F1000
G01 X0.277778 Y-6.722222 Z10 F1000
G01 X0.277778 Y-6.944444 Z10 F1000
G01 X0.277778 Y-7.166667 Z10 F1000
G01 X99.611111 Y-7.166667 Z10 F1000
G01 X99.611111 Y-7.388889 Z10 F1000
G01 X99.611111 Y-7.611111 Z10 F1000
G01 X99.611111 Y-7.833333 Z10 F1000
G01 X0.277778 Y-7.833333 Z10 F1000
G01 X0.277778 Y-8.055556 Z10 F1000
G01 X0.277778 Y-8.277778 Z10 F1000
G01 X0.277778 Y-8.5 Z10 F1000
G01 X99.611111 Y-8.5 Z10 F1000
G01 X99.611111 Y-8.722222 Z10 F1000
G01 X99.611111 Y-8.944444 Z10 F1000
G01 X99.611111 Y-9.166667 Z10 F1000
G01 X50.5 Y-9.166667 Z10 F1000
G01 X50.277778 Y-9.166667 Z9.960784 F1000
G01 X50.055556 Y-9.166667 Z10 F1000
G01 X0.277778 Y-9.166667 Z10 F1000
G01 X0.277778 Y-9.388889 Z10 F1000
G01 X0.277778 Y-9.611111 Z10 F1000
G01 X0.277778 Y-9.833333 Z10 F1000
G01 X49.833333 Y-9.833333 Z10 F1000
G01 X50.055556 Y-9.833333 Z9.960784 F1000
G01 X50.277778 Y-9.833333 Z9.882353 F1000
G01 X50.5 Y-9.833333 Z9.490196 F1000
G01 X50.722222 Y-9.833333 Z9.058824 F1000
G01 X50.944444 Y-9.833333 Z9.254902 F1000
G01 X51.166667 Y-9.833333 Z9.411765 F1000
G01 X51.388889 Y-9.833333 Z9.490196 F1000
G01 X51.611111 Y-9.833333 Z9.647059 F1000
G01 X51.833333 Y-9.833333 Z9.803922 F1000
G01 X52.055556 Y-9.833333 Z9.921569 F1000
G01 X52.722222 Y-9.833333 Z9.921569 F1000
G01 X52.944444 Y-9.833333 Z10 F1000
G01 X99.611111 Y-9.833333 Z10 F1000
G01 X99.611111 Y-10.055556 Z10 F1000
G01 X99.611111 Y-10.277778 Z10 F1000
G01 X99.611111 Y-10.5 Z10 F1000
G01 X54.277778 Y-10.5 Z10 F1000
G01 X54.055556 Y-10.5 Z9.960784 F1000
G01 X53.833333 Y-10.5 Z9.960784 F1000
G01 X53.611111 Y-10.5 Z9.843137 F1000
G01 X53.388889 Y-10.5 Z9.411765 F1000
G01 X53.166667 Y-10.5 Z8.313725 F1000
G01 X52.944444 Y-10.5 Z7.254902 F1000
G01 X52.722222 Y-10.5 Z4.117647 F1000
G01 X52.5 Y-10.5 Z3.333333 F1000
G01 X52.277778 Y-10.5 Z2.27451 F1000
G01 X52.055556 Y-10.5 Z1.843137 F1000
G01 X51.833333 Y-10.5 Z1.921569 F1000
G01 X51.611111 Y-10.5 Z2.196078 F1000
G01 X51.388889 Y-10.5 Z5.098039 F1000
G01 X51.166667 Y-10.5 Z8.470588 F1000
G01 X50.944444 Y-10.5 Z10 F1000
G01 X0.277778 Y-10.5 Z10 F1000
G01 X0.277778 Y-10.722222 Z10 F1000
G01 X0.277778 Y-10.944444 Z10 F1000
G01 X0.277778 Y-11.166667 Z10 F1000
G01 X40.055556 Y-11.166667 Z10 F1000
G01 X40.277778 Y-11.166667 Z9.843137 F1000
G01 X40.722222 Y-11.166667 Z9.843137 F1000
G01 X40.944444 Y-11.166667 Z10 F1000
G01 X50.944444 Y-11.166667 Z10 F1000
G01 X51.166667 Y-11.166667 Z9.843137 F1000
G01 X51.388889 Y-11.166667 Z9.803922 F1000
G01 X51.611111 Y-11.166667 Z7.137255 F1000
G01 X51.833333 Y-11.166667 Z3.254902 F1000
G01 X52.055556 Y-11.166667 Z1.843137 F1000
G01 X52.277778 Y-11.166667 Z1.647059 F1000
G01 X52.5 Y-11.166667 Z1.607843 F1000
G01 X52.722222 Y-11.166667 Z1.607843 F1000
G01 X52.944444 Y-11.166667 Z1.72549 F1000
G01 X53.611111 Y-11.166667 Z1.72549 F1000
G01 X53.833333 Y-11.166667 Z1.921569 F1000
G01 X54.055556 Y-11.166667 Z3.333333 F1000
G01 X54.277778 Y-11.166667 Z5.843137 F1000
G01 X54.5 Y-11.166667 Z8 F1000
G01 X54.722222 Y-11.166667 Z9.411765 F1000
G01 X54.944444 Y-11.166667 Z10 F1000
G01 X99.611111 Y-11.166667 Z10 F1000
G01 X99.611111 Y-11.388889 Z10 F1000
G01 X99.611111 Y-11.611111 Z10 F1000
G01 X99.611111 Y-11.833333 Z10 F1000
G01 X58.277778 Y-11.833333 Z10 F1000
G01 X58.055556 Y-11.833333 Z9.882353 F1000
G01 X57.833333 Y-11.833333 Z10 F1000
G01 X55.833333 Y-11.833333 Z10 F1000
G01 X55.611111 Y-11.833333 Z9.019608 F1000
G01 X55.388889 Y-11.833333 Z6.901961 F1000
G01 X55.166667 Y-11.833333 Z3.960784 F1000
G01 X54.944444 Y-11.833333 Z1.882353 F1000
G01 X54.722222 Y-11.833333 Z1.764706 F1000
G01 X54.5 Y-11.833333 Z1.72549 F1000
G01 X53.833333 Y-11.833333 Z1.72549 F1000
G01 X53.611111 Y-11.833333 Z1.686275 F1000
G01 X53.388889 Y-11.833333 Z1.647059 F1000
G01 X52.944444 Y-11.833333 Z1.647059 F1000
G01 X52.722222 Y-11.833333 Z1.607843 F1000
G01 X52.5 Y-11.833333 Z1.607843 F1000
G01 X52.277778 Y-11.833333 Z1.647059 F1000
G01 X52.055556 Y-11.833333 Z1.843137 F1000
G01 X51.833333 Y-11.833333 Z6.862745 F1000
G01 X51.611111 Y-11.833333 Z9.333333 F1000
G01 X51.388889 Y-11.833333 Z10 F1000
G01 X43.833333 Y-11.833333 Z10 F1000
G01 X43.611111 Y-11.833333 Z9.882353 F1000
G01 X43.388889 Y-11.833333 Z9.843137 F1000
G01 X43.166667 Y-11.833333 Z9.411765 F1000
G01 X42.944444 Y-11.833333 Z8.235294 F1000
G01 X42.722222 Y-11.833333 Z6.901961 F1000
G01 X42.5 Y-11.833333 Z5.45098 F1000
G01 X42.277778 Y-11.833333 Z4.117647 F1000
G01 X42.055556 Y-11.833333 Z1.882353 F1000
G01 X41.611111 Y-11.833333 Z1.882353 F1000
G01 X41.388889 Y-11.833333 Z2 F1000
G01 X41.166667 Y-11.833333 Z2.039216 F1000
G01 X40.5 Y-11.833333 Z2.039216 F1000
G01 X40.277778 Y-11.833333 Z3.72549 F1000
G01 X40.055556 Y-11.833333 Z6.901961 F1000
G01 X39.833333 Y-11.833333 Z9.254902 F1000
G01 X39.611111 Y-11.833333 Z9.960784 F1000
G01 X38.722222 Y-11.833333 Z9.960784 F1000
G01 X38.5 Y-11.833333 Z9.921569 F1000
G01 X38.277778 Y-11.833333 Z9.921569 F1000
G01 X38.055556 Y-11.833333 Z9.960784 F1000
G01 X37.833333 Y-11.833333 Z10 F1000
G01 X0.277778 Y-11.833333 Z10 F1000
G01 X0.277778 Y-12.055556 Z10 F1000
G01 X0.277778 Y-12.277778 Z10 F1000
G01 X0.277778 Y-12.5 Z10 F1000
G01 X36.944444 Y-12.5 Z10 F1000
G01 X37.166667 Y-12.5 Z9.960784 F1000
G01 X37.833333 Y-12.5 Z9.960784 F1000
G01 X38.055556 Y-12.5 Z9.882353 F1000
G01 X38.277778 Y-12.5 Z9.882353 F1000
G01 X38.5 Y-12.5 Z9.921569 F1000
G01 X38.722222 Y-12.5 Z9.960784 F1000
G01 X39.611111 Y-12.5 Z9.960784 F1000
G01 X39.833333 Y-12.5 Z9.921569 F1000
G01 X40.055556 Y-12.5 Z9.921569 F1000
G01 X40.277778 Y-12.5 Z9.803922 F1000
G01 X40.5 Y-12.5 Z9.372549 F1000
G01 X40.722222 Y-12.5 Z8.431373 F1000
G01 X40.944444 Y-12.5 Z5.411765 F1000
G01 X41.166667 Y-12.5 Z2.039216 F1000
G01 X41.388889 Y-12.5 Z2 F1000
G01 X41.611111 Y-12.5 Z2 F1000
G01 X41.833333 Y-12.5 Z2.078431 F1000
G01 X42.722222 Y-12.5 Z2.078431 F1000
G01 X42.944444 Y-12.5 Z1.921569 F1000
G01 X43.388889 Y-12.5 Z1.921569 F1000
G01 X43.611111 Y-12.5 Z3.176471 F1000
G01 X43.833333 Y-12.5 Z5.058824 F1000
G01 X44.055556 Y-12.5 Z7.72549 F1000
G01 X44.277778 Y-12.5 Z8.745098 F1000
G01 X44.5 Y-12.5 Z9.568627 F1000
G01 X44.722222 Y-12.5 Z9.686275 F1000
G01 X44.944444 Y-12.5 Z9.803922 F1000
G01 X45.166667 Y-12.5 Z10 F1000
G01 X51.388889 Y-12.5 Z10 F1000
G01 X51.611111 Y-12.5 Z9.333333 F1000
G01 X51.833333 Y-12.5 Z6.862745 F1000
G01 X52.055556 Y-12.5 Z1.843137 F1000
G01 X52.277778 Y-12.5 Z1.647059 F1000
G01 X52.5 Y-12.5 Z1.607843 F1000
G01 X53.166667 Y-12.5 Z1.607843 F1000
G01 X53.388889 Y-12.5 Z1.647059 F1000
G01 X54.5 Y-12.5 Z1.647059 F1000
G01 X54.722222 Y-12.5 Z1.72549 F1000
G01 X54.944444 Y-12.5 Z1.882353 F1000
G01 X55.611111 Y-12.5 Z1.882353 F1000
G01 X55.833333 Y-12.5 Z2 F1000
G01 X56.055556 Y-12.5 Z4.627451 F1000
G01 X56.277778 Y-12.5 Z8.627451 F1000
G01 X56.5 Y-12.5 Z9.490196 F1000
G01 X56.722222 Y-12.5 Z9.764706 F1000
G01 X56.944444 Y-12.5 Z10 F1000
G01 X99.611111 Y-12.5 Z10 F1000
G01 X99.611111 Y-12.722222 Z10 F1000
G01 X99.611111 Y-12.944444 Z10 F1000
G01 X99.611111 Y-13.166667 Z10 F1000
G01 X57.166667 Y-13.166667 Z10 F1000
G01 X56.944444 Y-13.166667 Z8.392157 F1000
G01 X56.722222 Y-13.166667 Z4.784314 F1000
G01 X56.5 Y-13.166667 Z2.156863 F1000
G01 X56.277778 Y-13.166667 Z1.647059 F1000
G01 X56.055556 Y-13.166667 Z1.686275 F1000
G01 X55.166667 Y-13.166667 Z1.686275 F1000
G01 X54.944444 Y-13.166667 Z1.647059 F1000
G01 X53.611111 Y-13.166667 Z1.647059 F1000
G01 X53.388889 Y-13.166667 Z1.607843 F1000
G01 X52.722222 Y-13.166667 Z1.607843 F1000
G01 X52.5 Y-13.166667 Z1.568627 F1000
G01 X52.055556 Y-13.166667 Z1.568627 F1000
G01 X51.833333 Y-13.166667 Z6.117647 F1000
G01 X51.611111 Y-13.166667 Z9.176471 F1000
G01 X51.388889 Y-13.166667 Z10 F1000
G01 X45.388889 Y-13.166667 Z10 F1000
G01 X45.166667 Y-13.166667 Z9.686275 F1000
G01 X44.944444 Y-13.166667 Z7.176471 F1000
G01 X44.722222 Y-13.166667 Z4 F1000
G01 X44.5 Y-13.166667 Z2 F1000
G01 X44.277778 Y-13.166667 Z1.764706 F1000
G01 X43.833333 Y-13.166667 Z1.764706 F1000
G01 X43.611111 Y-13.166667 Z1.647059 F1000
G01 X42.277778 Y-13.166667 Z1.647059 F1000
G01 X42.055556 Y-13.166667 Z1.921569 F1000
G01 X41.833333 Y-13.166667 Z1.921569 F1000
G01 X41.611111 Y-13.166667 Z2 F1000
G01 X41.388889 Y-13.166667 Z5.254902 F1000
G01 X41.166667 Y-13.166667 Z9.490196 F1000
G01 X40.944444 Y-13.166667 Z9.921569 F1000
G01 X40.722222 Y-13.166667 Z10 F1000
G01 X38.722222 Y-13.166667 Z10 F1000
G01 X38.5 Y-13.166667 Z9.960784 F1000
G01 X37.833333 Y-13.166667 Z9.960784 F1000
G01 X37.611111 Y-13.166667 Z10 F1000
G01 X0.277778 Y-13.166667 Z10 F1000
G01 X0.277778 Y-13.388889 Z10 F1000
G01 X0.277778 Y-13.611111 Z10 F1000
G01 X0.277778 Y-13.833333 Z10 F1000
G01 X30.722222 Y-13.833333 Z10 F1000
G01 X30.944444 Y-13.833333 Z9.960784 F1000
G01 X31.166667 Y-13.833333 Z9.921569 F1000
G01 X31.388889 Y-13.833333 Z9.921569 F1000
G01 X31.611111 Y-13.833333 Z10 F1000
G01 X34.055556 Y-13.833333 Z10 F1000
G01 X34.277778 Y-13.833333 Z9.960784 F1000
G01 X34.5 Y-13.833333 Z10 F1000
G01 X41.388889 Y-13.833333 Z10 F1000
G01 X41.611111 Y-13.833333 Z8.235294 F1000
G01 X41.833333 Y-13.833333 Z4.431373 F1000
G01 X42.055556 Y-13.833333 Z1.921569 F1000
G01 X42.277778 Y-13.833333 Z1.686275 F1000
G01 X42.5 Y-13.833333 Z1.647059 F1000
G01 X43.833333 Y-13.833333 Z1.647059 F1000
G01 X44.055556 Y-13.833333 Z1.764706 F1000
G01 X45.166667 Y-13.833333 Z1.764706 F1000
G01 X45.388889 Y-13.833333 Z2.54902 F1000
G01 X45.611111 Y-13.833333 Z4.54902 F1000
G01 X45.833333 Y-13.833333 Z8 F1000
G01 X46.055556 Y-13.833333 Z9.176471 F1000
G01 X46.277778 Y-13.833333 Z9.882353 F1000
G01 X47.166667 Y-13.833333 Z9.882353 F1000
G01 X47.388889 Y-13.833333 Z9.921569 F1000
G01 X47.611111 Y-13.833333 Z10 F1000
G01 X48.944444 Y-13.833333 Z10 F1000
G01 X49.166667 Y-13.833333 Z9.960784 F1000
G01 X50.055556 Y-13.833333 Z9.960784 F1000
G01 X50.277778 Y-13.833333 Z10 F1000
G01 X51.166667 Y-13.833333 Z10 F1000
G01 X51.388889 Y-13.833333 Z9.254902 F1000
G01 X51.611111 Y-13.833333 Z6.588235 F1000
G01 X51.833333 Y-13.833333 Z3.333333 F1000
G01 X52.055556 Y-13.833333 Z1.607843 F1000
G01 X52.277778 Y-13.833333 Z1.568627 F1000
G01 X52.5 Y-13.833333 Z1.568627 F1000
G01 X52.722222 Y-13.833333 Z1.607843 F1000
G01 X53.611111 Y-13.833333 Z1.607843 F1000
G01 X53.833333 Y-13.833333 Z1.568627 F1000
G01 X54.055556 Y-13.833333 Z1.607843 F1000
G01 X54.277778 Y-13.833333 Z1.647059 F1000
G01 X56.277778 Y-13.833333 Z1.647059 F1000
G01 X56.5 Y-13.833333 Z1.686275 F1000
G01 X56.722222 Y-13.833333 Z2.235294 F1000
G01 X56.944444 Y-13.833333 Z2.235294 F1000
G01 X57.166667 Y-13.833333 Z3.176471 F1000
G01 X57.388889 Y-13.833333 Z7.215686 F1000
G01 X57.611111 Y-13.833333 Z9.686275 F1000
G01 X57.833333 Y-13.833333 Z9.803922 F1000
G01 X58.055556 Y-13.833333 Z10 F1000
G01 X99.611111 Y-13.833333 Z10 F1000
G01 X99.611111 Y-14.055556 Z10 F1000
G01 X99.611111 Y-14.277778 Z10 F1000
G01 X99.611111 Y-14.5 Z10 F1000
G01 X58.055556 Y-14.5 Z10 F1000
G01 X57.833333 Y-14.5 Z8.039216 F1000
G01 X57.611111 Y-14.5 Z3.490196 F1000
G01 X57.388889 Y-14.5 Z2 F1000
G01 X57.166667 Y-14.5 Z2 F1000
G01 X56.944444 Y-14.5 Z1.960784 F1000
G01 X56.722222 Y-14.5 Z1.803922 F1000
G01 X56.5 Y-14.5 Z1.803922 F1000
G01 X56.277778 Y-14.5 Z1.647059 F1000
G01 X54.277778 Y-14.5 Z1.647059 F1000
G01 X54.055556 Y-14.5 Z1.607843 F1000
G01 X53.833333 Y-14.5 Z1.568627 F1000
G01 X53.611111 Y-14.5 Z1.529412 F1000
G01 X52.722222 Y-14.5 Z1.529412 F1000
G01 X52.5 Y-14.5 Z1.568627 F1000
G01 X52.277778 Y-14.5 Z1.568627 F1000
G01 X52.055556 Y-14.5 Z1.607843 F1000
G01 X51.833333 Y-14.5 Z1.803922 F1000
G01 X51.611111 Y-14.5 Z1.803922 F1000
G01 X51.388889 Y-14.5 Z3.45098 F1000
G01 X51.166667 Y-14.5 Z6.980392 F1000
G01 X50.944444 Y-14.5 Z8.941176 F1000
G01 X50.722222 Y-14.5 Z9.215686 F1000
G01 X50.5 Y-14.5 Z9.686275 F1000
G01 X50.277778 Y-14.5 Z9.764706 F1000
G01 X49.388889 Y-14.5 Z9.764706 F1000
G01 X49.166667 Y-14.5 Z9.882353 F1000
G01 X48.944444 Y-14.5 Z10 F1000
G01 X47.611111 Y-14.5 Z10 F1000
G01 X47.388889 Y-14.5 Z9.803922 F1000
G01 X47.166667 Y-14.5 Z9.568627 F1000
G01 X46.944444 Y-14.5 Z9.137255 F1000
G01 X46.722222 Y-14.5 Z7.647059 F1000
G01 X46.5 Y-14.5 Z4.745098 F1000
G01 X46.277778 Y-14.5 Z2 F1000
G01 X46.055556 Y-14.5 Z1.72549 F1000
G01 X45.611111 Y-14.5 Z1.72549 F1000
G01 X45.388889 Y-14.5 Z1.529412 F1000
G01 X45.166667 Y-14.5 Z1.529412 F1000
G01 X44.944444 Y-14.5 Z1.607843 F1000
G01 X44.722222 Y-14.5 Z1.647059 F1000
G01 X43.833333 Y-14.5 Z1.647059 F1000
G01 X43.611111 Y-14.5 Z1.607843 F1000
G01 X43.388889 Y-14.5 Z1.568627 F1000
G01 X43.166667 Y-14.5 Z1.568627 F1000
G01 X42.944444 Y-14.5 Z1.843137 F1000
G01 X42.722222 Y-14.5 Z1.960784 F1000
G01 X42.277778 Y-14.5 Z1.960784 F1000
G01 X42.055556 Y-14.5 Z6.117647 F1000
G01 X41.833333 Y-14.5 Z9.098039 F1000
G01 X41.611111 Y-14.5 Z10 F1000
G01 X34.722222 Y-14.5 Z10 F1000
G01 X34.5 Y-14.5 Z9.647059 F1000
G01 X34.277778 Y-14.5 Z9.137255 F1000
G01 X34.055556 Y-14.5 Z8.54902 F1000
G01 X33.833333 Y-14.5 Z8 F1000
G01 X33.611111 Y-14.5 Z7.607843 F1000
G01 X33.388889 Y-14.5 Z8.235294 F1000
G01 X33.166667 Y-14.5 Z8.901961 F1000
G01 X32.944444 Y-14.5 Z9.529412 F1000
G01 X32.722222 Y-14.5 Z10 F1000
G01 X0.277778 Y-14.5 Z10 F1000
G01 X0.277778 Y-14.722222 Z10 F1000
G01 X0.277778 Y-14.944444 Z10 F1000
G01 X0.277778 Y-15.166667 Z10 F1000
G01 X32.5 Y-15.166667 Z10 F1000
G01 X32.722222 Y-15.166667 Z9.960784 F1000
G01 X33.388889 Y-15.166667 Z9.960784 F1000
G01 X33.611111 Y-15.166667 Z9.529412 F1000
G01 X33.833333 Y-15.166667 Z7.647059 F1000
G01 X34.055556 Y-15.166667 Z5.333333 F1000
G01 X34.277778 Y-15.166667 Z2.196078 F1000
G01 X34.5 Y-15.166667 Z1.960784 F1000
G01 X35.166667 Y-15.166667 Z1.960784 F1000
G01 X35.388889 Y-15.166667 Z2.823529 F1000
G01 X35.611111 Y-15.166667 Z4.352941 F1000
G01 X35.833333 Y-15.166667 Z6.196078 F1000
G01 X36.055556 Y-15.166667 Z8.156863 F1000
G01 X36.277778 Y-15.166667 Z9.647059 F1000
G01 X36.5 Y-15.166667 Z10 F1000
G01 X41.833333 Y-15.166667 Z10 F1000
G01 X42.055556 Y-15.166667 Z9.568627 F1000
G01 X42.277778 Y-15.166667 Z7.176471 F1000
G01 X42.5 Y-15.166667 Z2.666667 F1000
G01 X42.722222 Y-15.166667 Z1.960784 F1000
G01 X42.944444 Y-15.166667 Z1.803922 F1000
G01 X43.166667 Y-15.166667 Z1.529412 F1000
G01 X43.388889 Y-15.166667 Z1.568627 F1000
G01 X43.611111 Y-15.166667 Z1.607843 F1000
G01 X44.722222 Y-15.166667 Z1.607843 F1000
G01 X44.944444 Y-15.166667 Z1.529412 F1000
G01 X45.611111 Y-15.166667 Z1.529412 F1000
G01 X45.833333 Y-15.166667 Z1.647059 F1000
G01 X46.055556 Y-15.166667 Z1.686275 F1000
G01 X46.277778 Y-15.166667 Z1.843137 F1000
G01 X47.166667 Y-15.166667 Z1.843137 F1000
G01 X47.388889 Y-15.166667 Z1.921569 F1000
G01 X47.611111 Y-15.166667 Z2.705882 F1000
G01 X47.833333 Y-15.166667 Z3.647059 F1000
G01 X48.055556 Y-15.166667 Z4.705882 F1000
G01 X48.277778 Y-15.166667 Z5.45098 F1000
G01 X48.5 Y-15.166667 Z5.960784 F1000
G01 X48.722222 Y-15.166667 Z6.156863 F1000
G01 X49.611111 Y-15.166667 Z6.156863 F1000
G01 X49.833333 Y-15.166667 Z5.803922 F1000
G01 X50.055556 Y-15.166667 Z5.333333 F1000
G01 X50.277778 Y-15.166667 Z4 F1000
G01 X50.5 Y-15.166667 Z2.901961 F1000
G01 X50.722222 Y-15.166667 Z1.764706 F1000
G01 X51.833333 Y-15.166667 Z1.764706 F1000
G01 X52.055556 Y-15.166667 Z1.529412 F1000
G01 X56.277778 Y-15.166667 Z1.529412 F1000
G01 X56.5 Y-15.166667 Z1.803922 F1000
G01 X57.611111 Y-15.166667 Z1.803922 F1000
G01 X57.833333 Y-15.166667 Z2.196078 F1000
G01 X58.055556 Y-15.166667 Z5.686275 F1000
G01 X58.277778 Y-15.166667 Z8.705882 F1000
G01 X58.5 Y-15.166667 Z10 F1000
G01 X99.611111 Y-15.166667 Z10 F1000
G01 X99.611111 Y-15.388889 Z10 F1000
G01 X99.611111 Y-15.611111 Z10 F1000
G01 X99.611111 Y-15.833333 Z10 F1000
G01 X58.944444 Y-15.833333 Z10 F1000
G01 X58.722222 Y-15.833333 Z9.960784 F1000
G01 X58.5 Y-15.833333 Z8.823529 F1000
G01 X58.277778 Y-15.833333 Z4.862745 F1000
G01 X58.055556 Y-15.833333 Z1.803922 F1000
G01 X56.722222 Y-15.833333 Z1.803922 F1000
G01 X56.5 Y-15.833333 Z1.607843 F1000
G01 X56.277778 Y-15.833333 Z1.529412 F1000
G01 X52.055556 Y-15.833333 Z1.529412 F1000
G01 X51.833333 Y-15.833333 Z1.764706 F1000
G01 X50.722222 Y-15.833333 Z1.764706 F1000
G01 X50.5 Y-15.833333 Z1.686275 F1000
G01 X50.277778 Y-15.833333 Z1.686275 F1000
G01 X50.055556 Y-15.833333 Z1.72549 F1000
G01 X49.833333 Y-15.833333 Z1.72549 F1000
G01 X49.611111 Y-15.833333 Z1.803922 F1000
G01 X48.5 Y-15.833333 Z1.803922 F1000
G01 X48.277778 Y-15.833333 Z1.764706 F1000
G01 X47.611111 Y-15.833333 Z1.764706 F1000
G01 X47.388889 Y-15.833333 Z1.72549 F1000
G01 X46.944444 Y-15.833333 Z1.72549 F1000
G01 X46.722222 Y-15.833333 Z1.647059 F1000
G01 X46.5 Y-15.833333 Z1.647059 F1000
G01 X46.277778 Y-15.833333 Z1.607843 F1000
G01 X45.833333 Y-15.833333 Z1.607843 F1000
G01 X45.611111 Y-15.833333 Z1.529412 F1000
G01 X44.944444 Y-15.833333 Z1.529412 F1000
G01 X44.722222 Y-15.833333 Z1.764706 F1000
G01 X44.055556 Y-15.833333 Z1.764706 F1000
G01 X43.833333 Y-15.833333 Z1.843137 F1000
G01 X42.944444 Y-15.833333 Z1.843137 F1000
G01 X42.722222 Y-15.833333 Z3.921569 F1000
G01 X42.5 Y-15.833333 Z7.647059 F1000
G01 X42.277778 Y-15.833333 Z9.72549 F1000
G01 X42.055556 Y-15.833333 Z9.960784 F1000
G01 X41.833333 Y-15.833333 Z10 F1000
G01 X38.5 Y-15.833333 Z10 F1000
G01 X38.277778 Y-15.833333 Z9.960784 F1000
G01 X37.611111 Y-15.833333 Z9.960784 F1000
G01 X37.388889 Y-15.833333 Z9.921569 F1000
G01 X37.166667 Y-15.833333 Z8.980392 F1000
G01 X36.944444 Y-15.833333 Z7.882353 F1000
G01 X36.722222 Y-15.833333 Z4.431373 F1000
G01 X36.5 Y-15.833333 Z2.431373 F1000
G01 X36.277778 Y-15.833333 Z1.803922 F1000
G01 X36.055556 Y-15.833333 Z1.803922 F1000
G01 X35.833333 Y-15.833333 Z1.960784 F1000
G01 X35.388889 Y-15.833333 Z1.960784 F1000
G01 X35.166667 Y-15.833333 Z2.039216 F1000
G01 X34.944444 Y-15.833333 Z2.039216 F1000
G01 X34.722222 Y-15.833333 Z5.529412 F1000
G01 X34.5 Y-15.833333 Z8.27451 F1000
G01 X34.277778 Y-15.833333 Z9.372549 F1000
G01 X34.055556 Y-15.833333 Z9.803922 F1000
G01 X33.833333 Y-15.833333 Z9.803922 F1000
G01 X33.611111 Y-15.833333 Z9.882353 F1000
G01 X33.388889 Y-15.833333 Z9.960784 F1000
G01 X32.722222 Y-15.833333 Z9.960784 F1000
G01 X32.5 Y-15.833333 Z10 F1000
G01 X28.944444 Y-15.833333 Z10 F1000
G01 X28.722222 Y-15.833333 Z9.960784 F1000
G01 X28.5 Y-15.833333 Z9.333333 F1000
G01 X28.277778 Y-15.833333 Z8.392157 F1000
G01 X28.055556 Y-15.833333 Z7.686275 F1000
G01 X27.833333 Y-15.833333 Z6.313725 F1000
G01 X27.611111 Y-15.833333 Z6 F1000
G01 X27.388889 Y-15.833333 Z5.686275 F1000
G01 X27.166667 Y-15.833333 Z5.803922 F1000
G01 X26.944444 Y-15.833333 Z6.862745 F1000
G01 X26.722222 Y-15.833333 Z7.72549 F1000
G01 X26.5 Y-15.833333 Z8.745098 F1000
G01 X26.277778 Y-15.833333 Z9.333333 F1000
G01 X26.055556 Y-15.833333 Z9.607843 F1000
G01 X25.833333 Y-15.833333 Z9.803922 F1000
G01 X25.611111 Y-15.833333 Z9.921569 F1000
G01 X25.388889 Y-15.833333 Z10 F1000
G01 X24.5 Y-15.833333 Z10 F1000
G01 X24.277778 Y-15.833333 Z9.882353 F1000
G01 X24.055556 Y-15.833333 Z9.960784 F1000
G01 X23.833333 Y-15.833333 Z10 F1000
G01 X0.277778 Y-15.833333 Z10 F1000
G01 X0.277778 Y-16.055556 Z10 F1000
G01 X0.277778 Y-16.277778 Z10 F1000
G01 X0.277778 Y-16.5 Z10 F1000
G01 X26.055556 Y-16.5 Z10 F1000
G01 X26.277778 Y-16.5 Z9.960784 F1000
G01 X26.5 Y-16.5 Z9.960784 F1000
G01 X26.722222 Y-16.5 Z9.843137 F1000
G01 X26.944444 Y-16.5 Z9.803922 F1000
G01 X27.166667 Y-16.5 Z9.764706 F1000
G01 X27.388889 Y-16.5 Z9.490196 F1000
G01 X27.611111 Y-16.5 Z7.568627 F1000
G01 X27.833333 Y-16.5 Z4.235294 F1000
G01 X28.055556 Y-16.5 Z1.882353 F1000
G01 X28.277778 Y-16.5 Z1.843137 F1000
G01 X29.166667 Y-16.5 Z1.843137 F1000
G01 X29.388889 Y-16.5 Z3.647059 F1000
G01 X29.611111 Y-16.5 Z5.607843 F1000
G01 X29.833333 Y-16.5 Z7.568627 F1000
G01 X30.055556 Y-16.5 Z9.137255 F1000
G01 X30.277778 Y-16.5 Z9.921569 F1000
G01 X30.5 Y-16.5 Z9.921569 F1000
G01 X30.722222 Y-16.5 Z10 F1000
G01 X33.833333 Y-16.5 Z10 F1000
G01 X34.055556 Y-16.5 Z9.960784 F1000
G01 X34.5 Y-16.5 Z9.960784 F1000
G01 X34.722222 Y-16.5 Z8.823529 F1000
G01 X34.944444 Y-16.5 Z4.784314 F1000
G01 X35.166667 Y-16.5 Z2.313725 F1000
G01 X35.388889 Y-16.5 Z1.843137 F1000
G01 X35.611111 Y-16.5 Z1.803922 F1000
G01 X35.833333 Y-16.5 Z1.803922 F1000
G01 X36.055556 Y-16.5 Z1.647059 F1000
G01 X36.722222 Y-16.5 Z1.647059 F1000
G01 X36.944444 Y-16.5 Z1.921569 F1000
G01 X37.166667 Y-16.5 Z1.921569 F1000
G01 X37.388889 Y-16.5 Z1.960784 F1000
G01 X37.611111 Y-16.5 Z5.647059 F1000
G01 X37.833333 Y-16.5 Z8.784314 F1000
G01 X38.055556 Y-16.5 Z9.607843 F1000
G01 X38.277778 Y-16.5 Z9.960784 F1000
G01 X38.5 Y-16.5 Z10 F1000
G01 X41.388889 Y-16.5 Z10 F1000
G01 X41.611111 Y-16.5 Z9.960784 F1000
G01 X42.5 Y-16.5 Z9.960784 F1000
G01 X42.722222 Y-16.5 Z9.058824 F1000
G01 X42.944444 Y-16.5 Z6.862745 F1000
G01 X43.166667 Y-16.5 Z3.254902 F1000
G01 X43.388889 Y-16.5 Z1.960784 F1000
G01 X43.833333 Y-16.5 Z1.960784 F1000
G01 X44.055556 Y-16.5 Z1.921569 F1000
G01 X44.5 Y-16.5 Z1.921569 F1000
G01 X44.722222 Y-16.5 Z1.764706 F1000
G01 X44.944444 Y-16.5 Z1.529412 F1000
G01 X56.277778 Y-16.5 Z1.529412 F1000
G01 X56.5 Y-16.5 Z1.607843 F1000
G01 X57.388889 Y-16.5 Z1.607843 F1000
G01 X57.611111 Y-16.5 Z1.568627 F1000
G01 X57.833333 Y-16.5 Z1.568627 F1000
G01 X58.055556 Y-16.5 Z1.607843 F1000
G01 X58.277778 Y-16.5 Z1.607843 F1000
G01 X58.5 Y-16.5 Z4.627451 F1000
G01 X58.722222 Y-16.5 Z9.254902 F1000
G01 X58.944444 Y-16.5 Z9.843137 F1000
G01 X59.166667 Y-16.5 Z10 F1000
G01 X99.611111 Y-16.5 Z10 F1000
G01 X99.611111 Y-16.722222 Z10 F1000
G01 X99.611111 Y-16.944444 Z10 F1000
G01 X99.611111 Y-17.166667 Z10 F1000
G01 X59.166667 Y-17.166667 Z10 F1000
G01 X58.944444 Y-17.166667 Z9.372549 F1000
G01 X58.722222 Y-17.166667 Z5.843137 F1000
G01 X58.5 Y-17.166667 Z1.764706 F1000
G01 X58.277778 Y-17.166667 Z1.607843 F1000
G01 X58.055556 Y-17.166667 Z1.607843 F1000
G01 X57.833333 Y-17.166667 Z1.568627 F1000
G01 X57.611111 Y-17.166667 Z1.568627 F1000
G01 X57.388889 Y-17.166667 Z1.607843 F1000
G01 X56.5 Y-17.166667 Z1.607843 F1000
G01 X56.277778 Y-17.166667 Z1.529412 F1000
G01 X44.944444 Y-17.166667 Z1.529412 F1000
G01 X44.722222 Y-17.166667 Z1.72549 F1000
G01 X44.5 Y-17.166667 Z1.921569 F1000
G01 X44.055556 Y-17.166667 Z1.921569 F1000
G01 X43.833333 Y-17.166667 Z1.960784 F1000
G01 X43.611111 Y-17.166667 Z5.411765 F1000
G01 X43.388889 Y-17.166667 Z9.137255 F1000
G01 X43.166667 Y-17.166667 Z9.372549 F1000
G01 X42.944444 Y-17.166667 Z9.882353 F1000
G01 X42.722222 Y-17.166667 Z9.882353 F1000
G01 X42.5 Y-17.166667 Z9.960784 F1000
G01 X41.833333 Y-17.166667 Z9.960784 F1000
G01 X41.611111 Y-17.166667 Z10 F1000
G01 X39.166667 Y-17.166667 Z10 F1000
G01 X38.944444 Y-17.166667 Z9.843137 F1000
G01 X38.722222 Y-17.166667 Z9.764706 F1000
G01 X38.5 Y-17.166667 Z8.509804 F1000
G01 X38.277778 Y-17.166667 Z5.607843 F1000
G01 X38.055556 Y-17.166667 Z2.27451 F1000
G01 X37.833333 Y-17.166667 Z1.843137 F1000
G01 X36.944444 Y-17.166667 Z1.843137 F1000
G01 X36.722222 Y-17.166667 Z1.607843 F1000
G01 X36.055556 Y-17.166667 Z1.607843 F1000
G01 X35.833333 Y-17.166667 Z1.764706 F1000
G01 X35.611111 Y-17.166667 Z1.882353 F1000
G01 X35.388889 Y-17.166667 Z1.882353 F1000
G01 X35.166667 Y-17.166667 Z2.313725 F1000
G01 X34.944444 Y-17.166667 Z5.058824 F1000
G01 X34.722222 Y-17.166667 Z9.647059 F1000
G01 X34.5 Y-17.166667 Z10 F1000
G01 X33.388889 Y-17.166667 Z10 F1000
G01 X33.166667 Y-17.166667 Z9.960784 F1000
G01 X32.055556 Y-17.166667 Z9.960784 F1000
G01 X31.833333 Y-17.166667 Z9.921569 F1000
G01 X31.611111 Y-17.166667 Z9.764706 F1000
G01 X31.388889 Y-17.166667 Z9.764706 F1000
G01 X31.166667 Y-17.166667 Z9.568627 F1000
G01 X30.944444 Y-17.166667 Z8.745098 F1000
G01 X30.722222 Y-17.166667 Z6 F1000
G01 X30.5 Y-17.166667 Z2.705882 F1000
G01 X30.277778 Y-17.166667 Z1.882353 F1000
G01 X29.388889 Y-17.166667 Z1.882353 F1000
G01 X29.166667 Y-17.166667 Z1.921569 F1000
G01 X28.944444 Y-17.166667 Z2.156863 F1000
G01 X28.722222 Y-17.166667 Z2.196078 F1000
G01 X28.5 Y-17.166667 Z5.372549 F1000
G01 X28.277778 Y-17.166667 Z8.588235 F1000
G01 X28.055556 Y-17.166667 Z9.764706 F1000
G01 X27.833333 Y-17.166667 Z10 F1000
G01 X0.277778 Y-17.166667 Z10 F1000
G01 X0.277778 Y-17.388889 Z10 F1000
G01 X0.277778 Y-17.611111 Z10 F1000
G01 X0.277778 Y-17.833333 Z10 F1000
G01 X28.277778 Y-17.833333 Z10 F1000
G01 X28.5 Y-17.833333 Z9.960784 F1000
G01 X28.722222 Y-17.833333 Z9.764706 F1000
G01 X28.944444 Y-17.833333 Z6.862745 F1000
G01 X29.166667 Y-17.833333 Z2.980392 F1000
G01 X29.388889 Y-17.833333 Z1.843137 F1000
G01 X30.5 Y-17.833333 Z1.843137 F1000
G01 X30.722222 Y-17.833333 Z2.078431 F1000
G01 X31.166667 Y-17.833333 Z2.078431 F1000
G01 X31.388889 Y-17.833333 Z3.803922 F1000
G01 X31.611111 Y-17.833333 Z7.568627 F1000
G01 X31.833333 Y-17.833333 Z8.941176 F1000
G01 X32.055556 Y-17.833333 Z9.921569 F1000
G01 X33.166667 Y-17.833333 Z9.921569 F1000
G01 X33.388889 Y-17.833333 Z10 F1000
G01 X34.277778 Y-17.833333 Z10 F1000
G01 X34.5 Y-17.833333 Z9.921569 F1000
G01 X34.722222 Y-17.833333 Z9.137255 F1000
G01 X34.944444 Y-17.833333 Z4.431373 F1000
G01 X35.166667 Y-17.833333 Z1.882353 F1000
G01 X35.611111 Y-17.833333 Z1.882353 F1000
G01 X35.833333 Y-17.833333 Z1.568627 F1000
G01 X37.166667 Y-17.833333 Z1.568627 F1000
G01 X37.388889 Y-17.833333 Z1.686275 F1000
G01 X37.833333 Y-17.833333 Z1.686275 F1000
G01 X38.055556 Y-17.833333 Z1.764706 F1000
G01 X38.5 Y-17.833333 Z1.764706 F1000
G01 X38.722222 Y-17.833333 Z2.078431 F1000
G01 X38.944444 Y-17.833333 Z5.137255 F1000
G01 X39.166667 Y-17.833333 Z8.313725 F1000
G01 X39.388889 Y-17.833333 Z9.607843 F1000
G01 X39.611111 Y-17.833333 Z10 F1000
G01 X43.611111 Y-17.833333 Z10 F1000
G01 X43.833333 Y-17.833333 Z9.72549 F1000
G01 X44.055556 Y-17.833333 Z8.980392 F1000
G01 X44.277778 Y-17.833333 Z7.333333 F1000
G01 X44.5 Y-17.833333 Z5.019608 F1000
G01 X44.722222 Y-17.833333 Z3.215686 F1000
G01 X44.944444 Y-17.833333 Z2.156863 F1000
G01 X45.166667 Y-17.833333 Z1.764706 F1000
G01 X45.388889 Y-17.833333 Z1.843137 F1000
G01 X45.611111 Y-17.833333 Z2.078431 F1000
G01 X46.5 Y-17.833333 Z2.078431 F1000
G01 X46.722222 Y-17.833333 Z1.529412 F1000
G01 X56.277778 Y-17.833333 Z1.529412 F1000
G01 X56.5 Y-17.833333 Z1.607843 F1000
G01 X57.388889 Y-17.833333 Z1.607843 F1000
G01 X57.611111 Y-17.833333 Z1.568627 F1000
G01 X57.833333 Y-17.833333 Z1.568627 F1000
G01 X58.055556 Y-17.833333 Z1.529412 F1000
G01 X58.277778 Y-17.833333 Z1.686275 F1000
G01 X58.5 Y-17.833333 Z1.686275 F1000
G01 X58.722222 Y-17.833333 Z2.705882 F1000
G01 X58.944444 Y-17.833333 Z7.686275 F1000
G01 X59.166667 Y-17.833333 Z9.72549 F1000
G01 X59.388889 Y-17.833333 Z9.960784 F1000
G01 X59.611111 Y-17.833333 Z10 F1000
G01 X99.611111 Y-17.833333 Z10 F1000
G01 X99.611111 Y-18.055556 Z10 F1000
G01 X99.611111 Y-18.277778 Z10 F1000
G01 X99.611111 Y-18.5 Z10 F1000
G01 X59.611111 Y-18.5 Z10 F1000
G01 X59.388889 Y-18.5 Z9.882353 F1000
G01 X59.166667 Y-18.5 Z8.745098 F1000
G01 X58.944444 Y-18.5 Z5.098039 F1000
G01 X58.722222 Y-18.5 Z1.764706 F1000
G01 X58.5 Y-18.5 Z1.686275 F1000
G01 X58.277778 Y-18.5 Z1.568627 F1000
G01 X58.055556 Y-18.5 Z1.529412 F1000
G01 X46.722222 Y-18.5 Z1.529412 F1000
G01 X46.5 Y-18.5 Z2.078431 F1000
G01 X46.277778 Y-18.5 Z2.078431 F1000
G01 X46.055556 Y-18.5 Z2.156863 F1000
G01 X45.833333 Y-18.5 Z3.686275 F1000
G01 X45.611111 Y-18.5 Z6.039216 F1000
G01 X45.388889 Y-18.5 Z7.882353 F1000
G01 X45.166667 Y-18.5 Z8.823529 F1000
G01 X44.944444 Y-18.5 Z9.333333 F1000
G01 X44.722222 Y-18.5 Z9.568627 F1000
G01 X44.5 Y-18.5 Z9.72549 F1000
G01 X44.277778 Y-18.5 Z10 F1000
G01 X41.166667 Y-18.5 Z10 F1000
G01 X40.944444 Y-18.5 Z9.960784 F1000
G01 X40.277778 Y-18.5 Z9.960784 F1000
G01 X40.055556 Y-18.5 Z8.431373 F1000
G01 X39.833333 Y-18.5 Z5.921569 F1000
G01 X39.611111 Y-18.5 Z3.529412 F1000
G01 X39.388889 Y-18.5 Z1.960784 F1000
G01 X39.166667 Y-18.5 Z1.843137 F1000
G01 X38.722222 Y-18.5 Z1.843137 F1000
G01 X38.5 Y-18.5 Z1.529412 F1000
G01 X36.055556 Y-18.5 Z1.529412 F1000
G01 X35.833333 Y-18.5 Z1.568627 F1000
G01 X35.611111 Y-18.5 Z1.607843 F1000
G01 X35.388889 Y-18.5 Z1.686275 F1000
G01 X35.166667 Y-18.5 Z1.764706 F1000
G01 X34.944444 Y-18.5 Z1.764706 F1000
G01 X34.722222 Y-18.5 Z2.823529 F1000
G01 X34.5 Y-18.5 Z4.941176 F1000
G01 X34.277778 Y-18.5 Z6.666667 F1000
G01 X34.055556 Y-18.5 Z8.313725 F1000
G01 X32.722222 Y-18.5 Z8.313725 F1000
G01 X32.5 Y-18.5 Z7.490196 F1000
G01 X32.277778 Y-18.5 Z5.254902 F1000
G01 X32.055556 Y-18.5 Z2.784314 F1000
G01 X31.833333 Y-18.5 Z1.764706 F1000
G01 X31.388889 Y-18.5 Z1.764706 F1000
G01 X31.166667 Y-18.5 Z1.607843 F1000
G01 X30.944444 Y-18.5 Z1.607843 F1000
G01 X30.722222 Y-18.5 Z1.764706 F1000
G01 X30.5 Y-18.5 Z1.764706 F1000
G01 X30.277778 Y-18.5 Z1.843137 F1000
G01 X29.833333 Y-18.5 Z1.843137 F1000
G01 X29.611111 Y-18.5 Z2.54902 F1000
G01 X29.388889 Y-18.5 Z6.666667 F1000
G01 X29.166667 Y-18.5 Z9.882353 F1000
G01 X28.944444 Y-18.5 Z9.960784 F1000
G01 X28.722222 Y-18.5 Z10 F1000
G01 X0.277778 Y-18.5 Z10 F1000
G01 X0.277778 Y-18.722222 Z10 F1000
G01 X0.277778 Y-18.944444 Z10 F1000
G01 X0.277778 Y-19.166667 Z10 F1000
G01 X29.388889 Y-19.166667 Z10 F1000
G01 X29.611111 Y-19.166667 Z9.058824 F1000
G01 X29.833333 Y-19.166667 Z5.803922 F1000
G01 X30.055556 Y-19.166667 Z2 F1000
G01 X30.277778 Y-19.166667 Z2 F1000
G01 X30.5 Y-19.166667 Z1.764706 F1000
G01 X30.722222 Y-19.166667 Z1.764706 F1000
G01 X30.944444 Y-19.166667 Z1.72549 F1000
G01 X31.166667 Y-19.166667 Z1.72549 F1000
G01 X31.388889 Y-19.166667 Z1.568627 F1000
G01 X31.611111 Y-19.166667 Z1.568627 F1000
G01 X31.833333 Y-19.166667 Z1.764706 F1000
G01 X32.277778 Y-19.166667 Z1.764706 F1000
G01 X32.5 Y-19.166667 Z1.882353 F1000
G01 X33.611111 Y-19.166667 Z1.882353 F1000
G01 X33.833333 Y-19.166667 Z1.764706 F1000
G01 X35.166667 Y-19.166667 Z1.764706 F1000
G01 X35.388889 Y-19.166667 Z1.686275 F1000
G01 X35.833333 Y-19.166667 Z1.686275 F1000
G01 X36.055556 Y-19.166667 Z1.529412 F1000
G01 X38.5 Y-19.166667 Z1.529412 F1000
G01 X38.722222 Y-19.166667 Z1.843137 F1000
G01 X39.611111 Y-19.166667 Z1.843137 F1000
G01 X39.833333 Y-19.166667 Z1.72549 F1000
G01 X40.055556 Y-19.166667 Z1.72549 F1000
G01 X40.277778 Y-19.166667 Z1.764706 F1000
G01 X40.5 Y-19.166667 Z2.352941 F1000
G01 X40.722222 Y-19.166667 Z3.960784 F1000
G01 X40.944444 Y-19.166667 Z6.235294 F1000
G01 X41.166667 Y-19.166667 Z8.117647 F1000
G01 X41.388889 Y-19.166667 Z9.176471 F1000
G01 X41.611111 Y-19.166667 Z9.647059 F1000
G01 X41.833333 Y-19.166667 Z9.960784 F1000
G01 X42.055556 Y-19.166667 Z10 F1000
G01 X43.833333 Y-19.166667 Z10 F1000
G01 X44.055556 Y-19.166667 Z9.960784 F1000
G01 X44.277778 Y-19.166667 Z9.843137 F1000
G01 X44.5 Y-19.166667 Z9.72549 F1000
G01 X44.722222 Y-19.166667 Z9.568627 F1000
G01 X44.944444 Y-19.166667 Z9.333333 F1000
G01 X45.166667 Y-19.166667 Z8.823529 F1000
G01 X45.388889 Y-19.166667 Z7.882353 F1000
G01 X45.611111 Y-19.166667 Z6.039216 F1000
G01 X45.833333 Y-19.166667 Z3.686275 F1000
G01 X46.055556 Y-19.166667 Z2.156863 F1000
G01 X46.277778 Y-19.166667 Z1.647059 F1000
G01 X46.5 Y-19.166667 Z1.647059 F1000
G01 X46.722222 Y-19.166667 Z1.529412 F1000
G01 X56.277778 Y-19.166667 Z1.529412 F1000
G01 X56.5 Y-19.166667 Z1.568627 F1000
G01 X57.388889 Y-19.166667 Z1.568627 F1000
G01 X57.611111 Y-19.166667 Z1.529412 F1000
G01 X57.833333 Y-19.166667 Z1.529412 F1000
G01 X58.055556 Y-19.166667 Z1.568627 F1000
G01 X58.277778 Y-19.166667 Z1.843137 F1000
G01 X58.722222 Y-19.166667 Z1.843137 F1000
G01 X58.944444 Y-19.166667 Z2.117647 F1000
G01 X59.166667 Y-19.166667 Z7.058824 F1000
G01 X59.388889 Y-19.166667 Z9.72549 F1000
G01 X59.611111 Y-19.166667 Z10 F1000
G01 X99.611111 Y-19.166667 Z10 F1000
G01 X99.611111 Y-19.388889 Z10 F1000
G01 X99.611111 Y-19.611111 Z10 F1000
G01 X99.611111 Y-19.833333 Z10 F1000
G01 X60.055556 Y-19.833333 Z10 F1000
G01 X59.833333 Y-19.833333 Z9.960784 F1000
G01 X59.611111 Y-19.833333 Z9.960784 F1000
G01 X59.388889 Y-19.833333 Z7.803922 F1000
G01 X59.166667 Y-19.833333 Z4.313725 F1000
G01 X58.944444 Y-19.833333 Z2.039216 F1000
G01 X58.722222 Y-19.833333 Z2.039216 F1000
G01 X58.5 Y-19.833333 Z1.843137 F1000
G01 X58.277778 Y-19.833333 Z1.843137 F1000
G01 X58.055556 Y-19.833333 Z1.568627 F1000
G01 X57.833333 Y-19.833333 Z1.529412 F1000
G01 X57.611111 Y-19.833333 Z1.529412 F1000
G01 X57.388889 Y-19.833333 Z1.568627 F1000
G01 X56.5 Y-19.833333 Z1.568627 F1000
G01 X56.277778 Y-19.833333 Z1.529412 F1000
G01 X46.722222 Y-19.833333 Z1.529412 F1000
G01 X46.5 Y-19.833333 Z1.568627 F1000
G01 X45.166667 Y-19.833333 Z1.568627 F1000
G01 X44.944444 Y-19.833333 Z2.078431 F1000
G01 X44.722222 Y-19.833333 Z2.392157 F1000
G01 X44.5 Y-19.833333 Z2.431373 F1000
G01 X44.277778 Y-19.833333 Z2.470588 F1000
G01 X44.055556 Y-19.833333 Z2.627451 F1000
G01 X43.833333 Y-19.833333 Z2.862745 F1000
G01 X43.611111 Y-19.833333 Z2.901961 F1000
G01 X42.722222 Y-19.833333 Z2.901961 F1000
G01 X42.5 Y-19.833333 Z2.509804 F1000
G01 X42.277778 Y-19.833333 Z1.960784 F1000
G01 X42.055556 Y-19.833333 Z1.647059 F1000
G01 X41.833333 Y-19.833333 Z1.803922 F1000
G01 X40.944444 Y-19.833333 Z1.803922 F1000
G01 X40.722222 Y-19.833333 Z1.647059 F1000
G01 X40.055556 Y-19.833333 Z1.647059 F1000
G01 X39.833333 Y-19.833333 Z1.686275 F1000
G01 X38.722222 Y-19.833333 Z1.686275 F1000
G01 X38.5 Y-19.833333 Z1.529412 F1000
G01 X36.055556 Y-19.833333 Z1.529412 F1000
G01 X35.833333 Y-19.833333 Z1.686275 F1000
G01 X35.388889 Y-19.833333 Z1.686275 F1000
G01 X35.166667 Y-19.833333 Z1.764706 F1000
G01 X34.277778 Y-19.833333 Z1.764706 F1000
G01 X34.055556 Y-19.833333 Z1.686275 F1000
G01 X33.833333 Y-19.833333 Z1.607843 F1000
G01 X33.166667 Y-19.833333 Z1.607843 F1000
G01 X32.944444 Y-19.833333 Z1.72549 F1000
G01 X30.722222 Y-19.833333 Z1.72549 F1000
G01 X30.5 Y-19.833333 Z1.843137 F1000
G01 X30.277778 Y-19.833333 Z2.901961 F1000
G01 X30.055556 Y-19.833333 Z7.843137 F1000
G01 X29.833333 Y-19.833333 Z9.843137 F1000
G01 X29.611111 Y-19.833333 Z10 F1000
G01 X0.277778 Y-19.833333 Z10 F1000
G01 X0.277778 Y-20.055556 Z10 F1000
G01 X0.277778 Y-20.277778 Z10 F1000
G01 X0.277778 Y-20.5 Z10 F1000
G01 X30.055556 Y-20.5 Z10 F1000
G01 X30.277778 Y-20.5 Z8.901961 F1000
G01 X30.5 Y-20.5 Z4.901961 F1000
G01 X30.722222 Y-20.5 Z2 F1000
G01 X30.944444 Y-20.5 Z1.72549 F1000
G01 X32.055556 Y-20.5 Z1.72549 F1000
G01 X32.277778 Y-20.5 Z1.686275 F1000
G01 X32.5 Y-20.5 Z1.529412 F1000
G01 X40.277778 Y-20.5 Z1.529412 F1000
G01 X40.5 Y-20.5 Z1.607843 F1000
G01 X40.722222 Y-20.5 Z1.607843 F1000
G01 X40.944444 Y-20.5 Z1.647059 F1000
G01 X42.055556 Y-20.5 Z1.647059 F1000
G01 X42.277778 Y-20.5 Z1.72549 F1000
G01 X43.166667 Y-20.5 Z1.72549 F1000
G01 X43.388889 Y-20.5 Z1.686275 F1000
G01 X43.611111 Y-20.5 Z1.686275 F1000
G01 X43.833333 Y-20.5 Z1.72549 F1000
G01 X44.722222 Y-20.5 Z1.72549 F1000
G01 X44.944444 Y-20.5 Z1.568627 F1000
G01 X46.5 Y-20.5 Z1.568627 F1000
G01 X46.722222 Y-20.5 Z1.529412 F1000
G01 X56.277778 Y-20.5 Z1.529412 F1000
G01 X56.5 Y-20.5 Z1.568627 F1000
G01 X57.388889 Y-20.5 Z1.568627 F1000
G01 X57.611111 Y-20.5 Z1.529412 F1000
G01 X57.833333 Y-20.5 Z1.529412 F1000
G01 X58.055556 Y-20.5 Z1.568627 F1000
G01 X58.277778 Y-20.5 Z1.764706 F1000
G01 X58.5 Y-20.5 Z1.764706 F1000
G01 X58.722222 Y-20.5 Z2.039216 F1000
G01 X59.166667 Y-20.5 Z2.039216 F1000
G01 X59.388889 Y-20.5 Z4.431373 F1000
G01 X59.611111 Y-20.5 Z8.470588 F1000
G01 X59.833333 Y-20.5 Z9.607843 F1000
G01 X60.055556 Y-20.5 Z9.843137 F1000
G01 X60.277778 Y-20.5 Z9.882353 F1000
G01 X60.5 Y-20.5 Z10 F1000
G01 X99.611111 Y-20.5 Z10 F1000
G01 X99.611111 Y-20.722222 Z10 F1000
G01 X99.611111 Y-20.944444 Z10 F1000
G01 X99.611111 Y-21.166667 Z10 F1000
G01 X62.277778 Y-21.166667 Z10 F1000
G01 X62.055556 Y-21.166667 Z9.960784 F1000
G01 X61.611111 Y-21.166667 Z9.960784 F1000
G01 X61.388889 Y-21.166667 Z10 F1000
G01 X60.5 Y-21.166667 Z10 F1000
G01 X60.277778 Y-21.166667 Z9.882353 F1000
G01 X60.055556 Y-21.166667 Z9.72549 F1000
G01 X59.833333 Y-21.166667 Z6.862745 F1000
G01 X59.611111 Y-21.166667 Z2.352941 F1000
G01 X59.388889 Y-21.166667 Z1.921569 F1000
G01 X58.722222 Y-21.166667 Z1.921569 F1000
G01 X58.5 Y-21.166667 Z1.686275 F1000
G01 X58.277778 Y-21.166667 Z1.686275 F1000
G01 X58.055556 Y-21.166667 Z1.568627 F1000
G01 X57.833333 Y-21.166667 Z1.529412 F1000
G01 X57.611111 Y-21.166667 Z1.529412 F1000
G01 X57.388889 Y-21.166667 Z1.568627 F1000
G01 X56.5 Y-21.166667 Z1.568627 F1000
G01 X56.277778 Y-21.166667 Z1.529412 F1000
G01 X53.833333 Y-21.166667 Z1.529412 F1000
G01 X53.611111 Y-21.166667 Z1.607843 F1000
G01 X53.388889 Y-21.166667 Z1.647059 F1000
G01 X53.166667 Y-21.166667 Z1.686275 F1000
G01 X52.944444 Y-21.166667 Z1.960784 F1000
G01 X52.5 Y-21.166667 Z1.960784 F1000
G01 X52.277778 Y-21.166667 Z2.039216 F1000
G01 X51.388889 Y-21.166667 Z2.039216 F1000
G01 X51.166667 Y-21.166667 Z1.764706 F1000
G01 X50.944444 Y-21.166667 Z1.647059 F1000
G01 X49.388889 Y-21.166667 Z1.647059 F1000
G01 X49.166667 Y-21.166667 Z1.607843 F1000
G01 X48.277778 Y-21.166667 Z1.607843 F1000
G01 X48.055556 Y-21.166667 Z1.568627 F1000
G01 X47.833333 Y-21.166667 Z1.647059 F1000
G01 X47.611111 Y-21.166667 Z1.764706 F1000
G01 X47.388889 Y-21.166667 Z1.843137 F1000
G01 X46.5 Y-21.166667 Z1.843137 F1000
G01 X46.277778 Y-21.166667 Z1.764706 F1000
G01 X46.055556 Y-21.166667 Z1.568627 F1000
G01 X44.944444 Y-21.166667 Z1.568627 F1000
G01 X44.722222 Y-21.166667 Z1.607843 F1000
G01 X43.833333 Y-21.166667 Z1.607843 F1000
G01 X43.611111 Y-21.166667 Z1.568627 F1000
G01 X43.388889 Y-21.166667 Z1.568627 F1000
G01 X43.166667 Y-21.166667 Z1.607843 F1000
G01 X42.722222 Y-21.166667 Z1.607843 F1000
G01 X42.5 Y-21.166667 Z1.647059 F1000
G01 X40.944444 Y-21.166667 Z1.647059 F1000
G01 X40.722222 Y-21.166667 Z1.607843 F1000
G01 X40.5 Y-21.166667 Z1.607843 F1000
G01 X40.277778 Y-21.166667 Z1.529412 F1000
G01 X34.055556 Y-21.166667 Z1.529412 F1000
G01 X33.833333 Y-21.166667 Z1.607843 F1000
G01 X33.166667 Y-21.166667 Z1.607843 F1000
G01 X32.944444 Y-21.166667 Z1.686275 F1000
G01 X32.277778 Y-21.166667 Z1.686275 F1000
G01 X32.055556 Y-21.166667 Z1.764706 F1000
G01 X31.166667 Y-21.166667 Z1.764706 F1000
G01 X30.944444 Y-21.166667 Z2.745098 F1000
G01 X30.722222 Y-21.166667 Z6.941176 F1000
G01 X30.5 Y-21.166667 Z9.529412 F1000
G01 X30.277778 Y-21.166667 Z9.843137 F1000
G01 X30.055556 Y-21.166667 Z10 F1000
G01 X0.277778 Y-21.166667 Z10 F1000
G01 X0.277778 Y-21.388889 Z10 F1000
G01 X0.277778 Y-21.611111 Z10 F1000
G01 X0.277778 Y-21.833333 Z10 F1000
G01 X30.722222 Y-21.833333 Z10 F1000
G01 X30.944444 Y-21.833333 Z8.431373 F1000
G01 X31.166667 Y-21.833333 Z5.45098 F1000
G01 X31.388889 Y-21.833333 Z1.803922 F1000
G01 X31.611111 Y-21.833333 Z1.764706 F1000
G01 X32.055556 Y-21.833333 Z1.764706 F1000
G01 X32.277778 Y-21.833333 Z1.686275 F1000
G01 X32.944444 Y-21.833333 Z1.686275 F1000
G01 X33.166667 Y-21.833333 Z1.607843 F1000
G01 X33.833333 Y-21.833333 Z1.607843 F1000
G01 X34.055556 Y-21.833333 Z1.529412 F1000
G01 X45.611111 Y-21.833333 Z1.529412 F1000
G01 X45.833333 Y-21.833333 Z1.647059 F1000
G01 X46.055556 Y-21.833333 Z1.803922 F1000
G01 X46.277778 Y-21.833333 Z1.803922 F1000
G01 X46.5 Y-21.833333 Z1.843137 F1000
G01 X46.722222 Y-21.833333 Z3.019608 F1000
G01 X46.944444 Y-21.833333 Z5.490196 F1000
G01 X47.166667 Y-21.833333 Z6.745098 F1000
G01 X48.055556 Y-21.833333 Z6.745098 F1000
G01 X48.277778 Y-21.833333 Z6.54902 F1000
G01 X48.5 Y-21.833333 Z6.470588 F1000
G01 X49.166667 Y-21.833333 Z6.470588 F1000
G01 X49.388889 Y-21.833333 Z6.588235 F1000
G01 X51.833333 Y-21.833333 Z6.588235 F1000
G01 X52.055556 Y-21.833333 Z6.431373 F1000
G01 X52.277778 Y-21.833333 Z4.784314 F1000
G01 X52.5 Y-21.833333 Z2.078431 F1000
G01 X52.722222 Y-21.833333 Z2 F1000
G01 X52.944444 Y-21.833333 Z2 F1000
G01 X53.166667 Y-21.833333 Z1.686275 F1000
G01 X53.388889 Y-21.833333 Z1.647059 F1000
G01 X53.611111 Y-21.833333 Z1.607843 F1000
G01 X53.833333 Y-21.833333 Z1.529412 F1000
G01 X58.055556 Y-21.833333 Z1.529412 F1000
G01 X58.277778 Y-21.833333 Z1.568627 F1000
G01 X59.611111 Y-21.833333 Z1.568627 F1000
G01 X59.833333 Y-21.833333 Z1.529412 F1000
G01 X60.055556 Y-21.833333 Z2.27451 F1000
G01 X60.277778 Y-21.833333 Z5.490196 F1000
G01 X60.5 Y-21.833333 Z8.705882 F1000
G01 X60.722222 Y-21.833333 Z9.843137 F1000
G01 X61.166667 Y-21.833333 Z9.843137 F1000
G01 X61.388889 Y-21.833333 Z10 F1000
G01 X99.611111 Y-21.833333 Z10 F1000
G01 X99.611111 Y-22.055556 Z10 F1000
G01 X99.611111 Y-22.277778 Z10 F1000
G01 X99.611111 Y-22.5 Z10 F1000
G01 X63.833333 Y-22.5 Z10 F1000
G01 X63.611111 Y-22.5 Z9.921569 F1000
G01 X62.722222 Y-22.5 Z9.921569 F1000
G01 X62.5 Y-22.5 Z9.843137 F1000
G01 X62.277778 Y-22.5 Z9.568627 F1000
G01 X62.055556 Y-22.5 Z9.254902 F1000
G01 X61.833333 Y-22.5 Z9.058824 F1000
G01 X61.611111 Y-22.5 Z8.588235 F1000
G01 X61.388889 Y-22.5 Z7.607843 F1000
G01 X61.166667 Y-22.5 Z5.568627 F1000
G01 X60.944444 Y-22.5 Z3.215686 F1000
G01 X60.722222 Y-22.5 Z1.843137 F1000
G01 X60.055556 Y-22.5 Z1.843137 F1000
G01 X59.833333 Y-22.5 Z1.568627 F1000
G01 X59.388889 Y-22.5 Z1.568627 F1000
G01 X59.166667 Y-22.5 Z1.529412 F1000
G01 X53.833333 Y-22.5 Z1.529412 F1000
G01 X53.611111 Y-22.5 Z1.568627 F1000
G01 X53.166667 Y-22.5 Z1.568627 F1000
G01 X52.944444 Y-22.5 Z2 F1000
G01 X52.722222 Y-22.5 Z2 F1000
G01 X52.5 Y-22.5 Z2.470588 F1000
G01 X52.277778 Y-22.5 Z6.352941 F1000
G01 X52.055556 Y-22.5 Z9.254902 F1000
G01 X51.833333 Y-22.5 Z9.882353 F1000
G01 X48.277778 Y-22.5 Z9.882353 F1000
G01 X48.055556 Y-22.5 Z10 F1000
G01 X47.166667 Y-22.5 Z10 F1000
G01 X46.944444 Y-22.5 Z7.843137 F1000
G01 X46.722222 Y-22.5 Z3.921569 F1000
G01 X46.5 Y-22.5 Z2.039216 F1000
G01 X46.055556 Y-22.5 Z2.039216 F1000
G01 X45.833333 Y-22.5 Z1.647059 F1000
G01 X45.611111 Y-22.5 Z1.529412 F1000
G01 X33.611111 Y-22.5 Z1.529412 F1000
G01 X33.388889 Y-22.5 Z1.607843 F1000
G01 X32.722222 Y-22.5 Z1.607843 F1000
G01 X32.5 Y-22.5 Z1.803922 F1000
G01 X32.055556 Y-22.5 Z1.803922 F1000
G01 X31.833333 Y-22.5 Z2.117647 F1000
G01 X31.611111 Y-22.5 Z5.294118 F1000
G01 X31.388889 Y-22.5 Z8.980392 F1000
G01 X31.166667 Y-22.5 Z9.529412 F1000
G01 X30.944444 Y-22.5 Z10 F1000
G01 X0.277778 Y-22.5 Z10 F1000
G01 X0.277778 Y-22.722222 Z10 F1000
G01 X0.277778 Y-22.944444 Z10 F1000
G01 X0.277778 Y-23.166667 Z10 F1000
G01 X31.611111 Y-23.166667 Z10 F1000
G01 X31.833333 Y-23.166667 Z9.882353 F1000
G01 X32.055556 Y-23.166667 Z7.803922 F1000
G01 X32.277778 Y-23.166667 Z5.372549 F1000
G01 X32.5 Y-23.166667 Z2.117647 F1000
G01 X32.722222 Y-23.166667 Z1.921569 F1000
G01 X32.944444 Y-23.166667 Z1.921569 F1000
G01 X33.166667 Y-23.166667 Z1.843137 F1000
G01 X33.611111 Y-23.166667 Z1.843137 F1000
G01 X33.833333 Y-23.166667 Z1.72549 F1000
G01 X34.055556 Y-23.166667 Z1.72549 F1000
G01 X34.277778 Y-23.166667 Z1.529412 F1000
G01 X34.944444 Y-23.166667 Z1.529412 F1000
G01 X35.166667 Y-23.166667 Z1.607843 F1000
G01 X36.722222 Y-23.166667 Z1.607843 F1000
G01 X36.944444 Y-23.166667 Z1.764706 F1000
G01 X38.055556 Y-23.166667 Z1.764706 F1000
G01 X38.277778 Y-23.166667 Z1.72549 F1000
G01 X38.5 Y-23.166667 Z1.803922 F1000
G01 X39.388889 Y-23.166667 Z1.803922 F1000
G01 X39.611111 Y-23.166667 Z1.686275 F1000
G01 X39.833333 Y-23.166667 Z1.72549 F1000
G01 X40.722222 Y-23.166667 Z1.72549 F1000
G01 X40.944444 Y-23.166667 Z1.607843 F1000
G01 X41.833333 Y-23.166667 Z1.607843 F1000
G01 X42.055556 Y-23.166667 Z1.568627 F1000
G01 X42.277778 Y-23.166667 Z1.568627 F1000
G01 X42.5 Y-23.166667 Z1.529412 F1000
G01 X45.166667 Y-23.166667 Z1.529412 F1000
G01 X45.388889 Y-23.166667 Z1.568627 F1000
G01 X45.611111 Y-23.166667 Z1.607843 F1000
G01 X45.833333 Y-23.166667 Z1.607843 F1000
G01 X46.055556 Y-23.166667 Z2.039216 F1000
G01 X46.5 Y-23.166667 Z2.039216 F1000
G01 X46.722222 Y-23.166667 Z3.686275 F1000
G01 X46.944444 Y-23.166667 Z7.921569 F1000
G01 X47.166667 Y-23.166667 Z10 F1000
G01 X49.388889 Y-23.166667 Z10 F1000
G01 X49.611111 Y-23.166667 Z9.960784 F1000
G01 X50.722222 Y-23.166667 Z9.960784 F1000
G01 X50.944444 Y-23.166667 Z9.921569 F1000
G01 X51.388889 Y-23.166667 Z9.921569 F1000
G01 X51.611111 Y-23.166667 Z9.882353 F1000
G01 X51.833333 Y-23.166667 Z9.882353 F1000
G01 X52.055556 Y-23.166667 Z9.411765 F1000
G01 X52.277778 Y-23.166667 Z6.235294 F1000
G01 X52.5 Y-23.166667 Z2.313725 F1000
G01 X52.722222 Y-23.166667 Z1.764706 F1000
G01 X52.944444 Y-23.166667 Z1.764706 F1000
G01 X53.166667 Y-23.166667 Z1.568627 F1000
G01 X53.611111 Y-23.166667 Z1.568627 F1000
G01 X53.833333 Y-23.166667 Z1.529412 F1000
G01 X59.166667 Y-23.166667 Z1.529412 F1000
G01 X59.388889 Y-23.166667 Z1.568627 F1000
G01 X60.055556 Y-23.166667 Z1.568627 F1000
G01 X60.277778 Y-23.166667 Z1.843137 F1000
G01 X60.944444 Y-23.166667 Z1.843137 F1000
G01 X61.166667 Y-23.166667 Z1.960784 F1000
G01 X62.055556 Y-23.166667 Z1.960784 F1000
G01 X62.277778 Y-23.166667 Z1.882353 F1000
G01 X63.166667 Y-23.166667 Z1.882353 F1000
G01 X63.388889 Y-23.166667 Z1.803922 F1000
G01 X63.611111 Y-23.166667 Z5.529412 F1000
G01 X63.833333 Y-23.166667 Z9.294118 F1000
G01 X64.055556 Y-23.166667 Z9.803922 F1000
G01 X64.277778 Y-23.166667 Z10 F1000
G01 X99.611111 Y-23.166667 Z10 F1000
G01 X99.611111 Y-23.388889 Z10 F1000
G01 X99.611111 Y-23.611111 Z10 F1000
G01 X99.611111 Y-23.833333 Z10 F1000
G01 X64.5 Y-23.833333 Z10 F1000
G01 X64.277778 Y-23.833333 Z9.882353 F1000
G01 X64.055556 Y-23.833333 Z9.568627 F1000
G01 X63.833333 Y-23.833333 Z7.803922 F1000
G01 X63.611111 Y-23.833333 Z2.470588 F1000
G01 X63.388889 Y-23.833333 Z1.647059 F1000
G01 X62.277778 Y-23.833333 Z1.647059 F1000
G01 X62.055556 Y-23.833333 Z1.607843 F1000
G01 X61.833333 Y-23.833333 Z1.607843 F1000
G01 X61.611111 Y-23.833333 Z1.490196 F1000
G01 X60.944444 Y-23.833333 Z1.490196 F1000
G01 X60.722222 Y-23.833333 Z1.529412 F1000
G01 X53.166667 Y-23.833333 Z1.529412 F1000
G01 X52.944444 Y-23.833333 Z1.686275 F1000
G01 X52.722222 Y-23.833333 Z1.686275 F1000
G01 X52.5 Y-23.833333 Z2.196078 F1000
G01 X52.277778 Y-23.833333 Z6.313725 F1000
G01 X52.055556 Y-23.833333 Z9.490196 F1000
G01 X51.833333 Y-23.833333 Z9.921569 F1000
G01 X51.611111 Y-23.833333 Z9.921569 F1000
G01 X51.388889 Y-23.833333 Z9.960784 F1000
G01 X51.166667 Y-23.833333 Z9.960784 F1000
G01 X50.944444 Y-23.833333 Z10 F1000
G01 X48.277778 Y-23.833333 Z10 F1000
G01 X48.055556 Y-23.833333 Z9.960784 F1000
G01 X47.166667 Y-23.833333 Z9.960784 F1000
G01 X46.944444 Y-23.833333 Z7.882353 F1000
G01 X46.722222 Y-23.833333 Z3.45098 F1000
G01 X46.5 Y-23.833333 Z1.647059 F1000
G01 X45.833333 Y-23.833333 Z1.647059 F1000
G01 X45.611111 Y-23.833333 Z1.607843 F1000
G01 X45.388889 Y-23.833333 Z1.568627 F1000
G01 X45.166667 Y-23.833333 Z1.529412 F1000
G01 X42.5 Y-23.833333 Z1.529412 F1000
G01 X42.277778 Y-23.833333 Z1.568627 F1000
G01 X42.055556 Y-23.833333 Z1.568627 F1000
G01 X41.833333 Y-23.833333 Z1.607843 F1000
G01 X40.944444 Y-23.833333 Z1.607843 F1000
G01 X40.722222 Y-23.833333 Z1.72549 F1000
G01 X40.277778 Y-23.833333 Z1.72549 F1000
G01 X40.055556 Y-23.833333 Z1.843137 F1000
G01 X39.166667 Y-23.833333 Z1.843137 F1000
G01 X38.944444 Y-23.833333 Z1.803922 F1000
G01 X38.5 Y-23.833333 Z1.803922 F1000
G01 X38.277778 Y-23.833333 Z1.960784 F1000
G01 X38.055556 Y-23.833333 Z2.352941 F1000
G01 X37.833333 Y-23.833333 Z2.588235 F1000
G01 X36.944444 Y-23.833333 Z2.588235 F1000
G01 X36.722222 Y-23.833333 Z2.509804 F1000
G01 X36.5 Y-23.833333 Z2.392157 F1000
G01 X36.277778 Y-23.833333 Z2.235294 F1000
G01 X36.055556 Y-23.833333 Z2.039216 F1000
G01 X35.833333 Y-23.833333 Z1.843137 F1000
G01 X35.611111 Y-23.833333 Z1.607843 F1000
G01 X35.388889 Y-23.833333 Z1.607843 F1000
G01 X35.166667 Y-23.833333 Z1.647059 F1000
G01 X34.277778 Y-23.833333 Z1.647059 F1000
G01 X34.055556 Y-23.833333 Z2.078431 F1000
G01 X33.833333 Y-23.833333 Z2.470588 F1000
G01 X33.611111 Y-23.833333 Z3.764706 F1000
G01 X33.388889 Y-23.833333 Z5.72549 F1000
G01 X33.166667 Y-23.833333 Z7.529412 F1000
G01 X32.944444 Y-23.833333 Z8.705882 F1000
G01 X32.722222 Y-23.833333 Z9.568627 F1000
G01 X32.5 Y-23.833333 Z10 F1000
G01 X0.277778 Y-23.833333 Z10 F1000
G01 X0.277778 Y-24.055556 Z10 F1000
G01 X0.277778 Y-24.277778 Z10 F1000
G01 X0.277778 Y-24.5 Z10 F1000
G01 X32.944444 Y-24.5 Z10 F1000
G01 X33.166667 Y-24.5 Z9.960784 F1000
G01 X33.833333 Y-24.5 Z9.960784 F1000
G01 X34.055556 Y-24.5 Z9.803922 F1000
G01 X34.277778 Y-24.5 Z9.803922 F1000
G01 X34.5 Y-24.5 Z9.72549 F1000
G01 X34.722222 Y-24.5 Z9.921569 F1000
G01 X34.944444 Y-24.5 Z10 F1000
G01 X35.833333 Y-24.5 Z10 F1000
G01 X36.055556 Y-24.5 Z9.921569 F1000
G01 X36.944444 Y-24.5 Z9.921569 F1000
G01 X37.166667 Y-24.5 Z9.882353 F1000
G01 X37.833333 Y-24.5 Z9.882353 F1000
G01 X38.055556 Y-24.5 Z9.843137 F1000
G01 X38.277778 Y-24.5 Z9.72549 F1000
G01 X38.5 Y-24.5 Z9.607843 F1000
G01 X38.722222 Y-24.5 Z9.607843 F1000
G01 X38.944444 Y-24.5 Z9.019608 F1000
G01 X39.166667 Y-24.5 Z7.372549 F1000
G01 X39.388889 Y-24.5 Z5.72549 F1000
G01 X39.611111 Y-24.5 Z2.588235 F1000
G01 X39.833333 Y-24.5 Z2.156863 F1000
G01 X40.055556 Y-24.5 Z2.156863 F1000
G01 X40.277778 Y-24.5 Z1.921569 F1000
G01 X40.722222 Y-24.5 Z1.921569 F1000
G01 X40.944444 Y-24.5 Z1.843137 F1000
G01 X41.166667 Y-24.5 Z1.764706 F1000
G01 X41.388889 Y-24.5 Z1.764706 F1000
G01 X41.611111 Y-24.5 Z1.686275 F1000
G01 X41.833333 Y-24.5 Z1.607843 F1000
G01 X42.055556 Y-24.5 Z1.529412 F1000
G01 X45.166667 Y-24.5 Z1.529412 F1000
G01 X45.388889 Y-24.5 Z1.568627 F1000
G01 X45.611111 Y-24.5 Z1.607843 F1000
G01 X45.833333 Y-24.5 Z1.686275 F1000
G01 X46.5 Y-24.5 Z1.686275 F1000
G01 X46.722222 Y-24.5 Z3.45098 F1000
G01 X46.944444 Y-24.5 Z7.882353 F1000
G01 X47.166667 Y-24.5 Z9.960784 F1000
G01 X48.055556 Y-24.5 Z9.960784 F1000
G01 X48.277778 Y-24.5 Z10 F1000
G01 X51.833333 Y-24.5 Z10 F1000
G01 X52.055556 Y-24.5 Z9.490196 F1000
G01 X52.277778 Y-24.5 Z6.352941 F1000
G01 X52.5 Y-24.5 Z2.352941 F1000
G01 X52.722222 Y-24.5 Z1.72549 F1000
G01 X52.944444 Y-24.5 Z1.72549 F1000
G01 X53.166667 Y-24.5 Z1.568627 F1000
G01 X53.388889 Y-24.5 Z1.568627 F1000
G01 X53.611111 Y-24.5 Z1.529412 F1000
G01 X61.611111 Y-24.5 Z1.529412 F1000
G01 X61.833333 Y-24.5 Z1.607843 F1000
G01 X62.055556 Y-24.5 Z1.607843 F1000
G01 X62.277778 Y-24.5 Z1.686275 F1000
G01 X63.611111 Y-24.5 Z1.686275 F1000
G01 X63.833333 Y-24.5 Z2.784314 F1000
G01 X64.055556 Y-24.5 Z7.490196 F1000
G01 X64.277778 Y-24.5 Z9.882353 F1000
G01 X64.5 Y-24.5 Z9.882353 F1000
G01 X64.722222 Y-24.5 Z10 F1000
G01 X66.055556 Y-24.5 Z10 F1000
G01 X66.277778 Y-24.5 Z9.882353 F1000
G01 X66.5 Y-24.5 Z9.882353 F1000
G01 X66.722222 Y-24.5 Z9.960784 F1000
G01 X66.944444 Y-24.5 Z10 F1000
G01 X99.611111 Y-24.5 Z10 F1000
G01 X99.611111 Y-24.722222 Z10 F1000
G01 X99.611111 Y-24.944444 Z10 F1000
G01 X99.611111 Y-25.166667 Z10 F1000
G01 X65.166667 Y-25.166667 Z10 F1000
G01 X64.944444 Y-25.166667 Z9.921569 F1000
G01 X64.722222 Y-25.166667 Z9.921569 F1000
G01 X64.5 Y-25.166667 Z9.215686 F1000
G01 X64.277778 Y-25.166667 Z5.215686 F1000
G01 X64.055556 Y-25.166667 Z2 F1000
G01 X63.833333 Y-25.166667 Z2 F1000
G01 X63.611111 Y-25.166667 Z1.686275 F1000
G01 X62.277778 Y-25.166667 Z1.686275 F1000
G01 X62.055556 Y-25.166667 Z1.607843 F1000
G01 X61.833333 Y-25.166667 Z1.529412 F1000
G01 X53.611111 Y-25.166667 Z1.529412 F1000
G01 X53.388889 Y-25.166667 Z1.607843 F1000
G01 X53.166667 Y-25.166667 Z1.607843 F1000
G01 X52.944444 Y-25.166667 Z1.72549 F1000
G01 X52.722222 Y-25.166667 Z1.72549 F1000
G01 X52.5 Y-25.166667 Z2.352941 F1000
G01 X52.277778 Y-25.166667 Z6.392157 F1000
G01 X52.055556 Y-25.166667 Z9.490196 F1000
G01 X51.833333 Y-25.166667 Z10 F1000
G01 X48.277778 Y-25.166667 Z10 F1000
G01 X48.055556 Y-25.166667 Z9.960784 F1000
G01 X47.611111 Y-25.166667 Z9.960784 F1000
G01 X47.388889 Y-25.166667 Z9.921569 F1000
G01 X47.166667 Y-25.166667 Z9.921569 F1000
G01 X46.944444 Y-25.166667 Z7.882353 F1000
G01 X46.722222 Y-25.166667 Z3.45098 F1000
G01 X46.5 Y-25.166667 Z1.686275 F1000
G01 X45.833333 Y-25.166667 Z1.686275 F1000
G01 X45.611111 Y-25.166667 Z1.607843 F1000
G01 X45.388889 Y-25.166667 Z1.568627 F1000
G01 X45.166667 Y-25.166667 Z1.529412 F1000
G01 X42.5 Y-25.166667 Z1.529412 F1000
G01 X42.277778 Y-25.166667 Z1.568627 F1000
G01 X42.055556 Y-25.166667 Z1.568627 F1000
G01 X41.833333 Y-25.166667 Z1.607843 F1000
G01 X41.611111 Y-25.166667 Z1.686275 F1000
G01 X41.388889 Y-25.166667 Z1.764706 F1000
G01 X41.166667 Y-25.166667 Z2.039216 F1000
G01 X40.277778 Y-25.166667 Z2.039216 F1000
G01 X40.055556 Y-25.166667 Z2.666667 F1000
G01 X39.833333 Y-25.166667 Z7.019608 F1000
G01 X39.611111 Y-25.166667 Z9.372549 F1000
G01 X39.388889 Y-25.166667 Z9.803922 F1000
G01 X39.166667 Y-25.166667 Z10 F1000
G01 X38.277778 Y-25.166667 Z10 F1000
G01 X38.055556 Y-25.166667 Z9.960784 F1000
G01 X37.833333 Y-25.166667 Z9.882353 F1000
G01 X37.166667 Y-25.166667 Z9.882353 F1000
G01 X36.944444 Y-25.166667 Z9.960784 F1000
G01 X36.722222 Y-25.166667 Z10 F1000
G01 X34.5 Y-25.166667 Z10 F1000
G01 X34.277778 Y-25.166667 Z9.960784 F1000
G01 X33.833333 Y-25.166667 Z9.960784 F1000
G01 X33.611111 Y-25.166667 Z10 F1000
G01 X31.833333 Y-25.166667 Z10 F1000
G01 X31.611111 Y-25.166667 Z9.960784 F1000
G01 X31.388889 Y-25.166667 Z9.921569 F1000
G01 X31.166667 Y-25.166667 Z10 F1000
G01 X0.277778 Y-25.166667 Z10 F1000
G01 X0.277778 Y-25.388889 Z10 F1000
G01 X0.277778 Y-25.611111 Z10 F1000
G01 X0.277778 Y-25.833333 Z10 F1000
G01 X39.611111 Y-25.833333 Z10 F1000
G01 X39.833333 Y-25.833333 Z9.490196 F1000
G01 X40.055556 Y-25.833333 Z7.843137 F1000
G01 X40.277778 Y-25.833333 Z3.45098 F1000
G01 X40.5 Y-25.833333 Z2.039216 F1000
G01 X41.166667 Y-25.833333 Z2.039216 F1000
G01 X41.388889 Y-25.833333 Z1.568627 F1000
G01 X41.833333 Y-25.833333 Z1.568627 F1000
G01 X42.055556 Y-25.833333 Z1.607843 F1000
G01 X42.944444 Y-25.833333 Z1.607843 F1000
G01 X43.166667 Y-25.833333 Z1.529412 F1000
G01 X45.611111 Y-25.833333 Z1.529412 F1000
G01 X45.833333 Y-25.833333 Z1.647059 F1000
G01 X46.5 Y-25.833333 Z1.647059 F1000
G01 X46.722222 Y-25.833333 Z3.490196 F1000
G01 X46.944444 Y-25.833333 Z7.960784 F1000
G01 X47.166667 Y-25.833333 Z10 F1000
G01 X48.055556 Y-25.833333 Z10 F1000
G01 X48.277778 Y-25.833333 Z9.960784 F1000
G01 X49.166667 Y-25.833333 Z9.960784 F1000
G01 X49.388889 Y-25.833333 Z10 F1000
G01 X51.833333 Y-25.833333 Z10 F1000
G01 X52.055556 Y-25.833333 Z9.490196 F1000
G01 X52.277778 Y-25.833333 Z6.431373 F1000
G01 X52.5 Y-25.833333 Z2.313725 F1000
G01 X52.722222 Y-25.833333 Z1.647059 F1000
G01 X53.388889 Y-25.833333 Z1.647059 F1000
G01 X53.611111 Y-25.833333 Z1.568627 F1000
G01 X53.833333 Y-25.833333 Z1.529412 F1000
G01 X62.722222 Y-25.833333 Z1.529412 F1000
G01 X62.944444 Y-25.833333 Z1.568627 F1000
G01 X63.611111 Y-25.833333 Z1.568627 F1000
G01 X63.833333 Y-25.833333 Z2.078431 F1000
G01 X64.5 Y-25.833333 Z2.078431 F1000
G01 X64.722222 Y-25.833333 Z5.098039 F1000
G01 X64.944444 Y-25.833333 Z8.705882 F1000
G01 X65.166667 Y-25.833333 Z10 F1000
G01 X99.611111 Y-25.833333 Z10 F1000
G01 X99.611111 Y-26.055556 Z10 F1000
G01 X99.611111 Y-26.277778 Z10 F1000
G01 X99.611111 Y-26.5 Z10 F1000
G01 X70.055556 Y-26.5 Z10 F1000
G01 X69.833333 Y-26.5 Z9.960784 F1000
G01 X68.722222 Y-26.5 Z9.960784 F1000
G01 X68.5 Y-26.5 Z10 F1000
G01 X66.055556 Y-26.5 Z10 F1000
G01 X65.833333 Y-26.5 Z8.627451 F1000
G01 X65.611111 Y-26.5 Z6.196078 F1000
G01 X65.388889 Y-26.5 Z4.235294 F1000
G01 X65.166667 Y-26.5 Z2.039216 F1000
G01 X64.944444 Y-26.5 Z2.039216 F1000
G01 X64.722222 Y-26.5 Z2.078431 F1000
G01 X63.833333 Y-26.5 Z2.078431 F1000
G01 X63.611111 Y-26.5 Z1.568627 F1000
G01 X62.944444 Y-26.5 Z1.568627 F1000
G01 X62.722222 Y-26.5 Z1.529412 F1000
G01 X54.944444 Y-26.5 Z1.529412 F1000
G01 X54.722222 Y-26.5 Z1.568627 F1000
G01 X53.833333 Y-26.5 Z1.568627 F1000
G01 X53.611111 Y-26.5 Z1.647059 F1000
G01 X52.722222 Y-26.5 Z1.647059 F1000
G01 X52.5 Y-26.5 Z2.509804 F1000
G01 X52.277778 Y-26.5 Z6.431373 F1000
G01 X52.055556 Y-26.5 Z9.490196 F1000
G01 X51.833333 Y-26.5 Z10 F1000
G01 X49.388889 Y-26.5 Z10 F1000
G01 X49.166667 Y-26.5 Z9.960784 F1000
G01 X48.5 Y-26.5 Z9.960784 F1000
G01 X48.277778 Y-26.5 Z10 F1000
G01 X47.166667 Y-26.5 Z10 F1000
G01 X46.944444 Y-26.5 Z7.960784 F1000
G01 X46.722222 Y-26.5 Z3.529412 F1000
G01 X46.5 Y-26.5 Z1.882353 F1000
G01 X46.055556 Y-26.5 Z1.882353 F1000
G01 X45.833333 Y-26.5 Z1.764706 F1000
G01 X45.611111 Y-26.5 Z1.529412 F1000
G01 X43.166667 Y-26.5 Z1.529412 F1000
G01 X42.944444 Y-26.5 Z1.647059 F1000
G01 X42.055556 Y-26.5 Z1.647059 F1000
G01 X41.833333 Y-26.5 Z1.607843 F1000
G01 X41.611111 Y-26.5 Z1.607843 F1000
G01 X41.388889 Y-26.5 Z1.647059 F1000
G01 X41.166667 Y-26.5 Z1.764706 F1000
G01 X40.944444 Y-26.5 Z1.764706 F1000
G01 X40.722222 Y-26.5 Z1.803922 F1000
G01 X40.5 Y-26.5 Z2.078431 F1000
G01 X40.277778 Y-26.5 Z5.294118 F1000
G01 X40.055556 Y-26.5 Z9.72549 F1000
G01 X39.833333 Y-26.5 Z10 F1000
G01 X0.277778 Y-26.5 Z10 F1000
G01 X0.277778 Y-26.722222 Z10 F1000
G01 X0.277778 Y-26.944444 Z10 F1000
G01 X0.277778 Y-27.166667 Z10 F1000
G01 X40.055556 Y-27.166667 Z10 F1000
G01 X40.277778 Y-27.166667 Z8.156863 F1000
G01 X40.5 Y-27.166667 Z3.490196 F1000
G01 X40.722222 Y-27.166667 Z1.72549 F1000
G01 X41.166667 Y-27.166667 Z1.72549 F1000
G01 X41.388889 Y-27.166667 Z1.607843 F1000
G01 X42.277778 Y-27.166667 Z1.607843 F1000
G01 X42.5 Y-27.166667 Z1.568627 F1000
G01 X42.722222 Y-27.166667 Z1.529412 F1000
G01 X45.611111 Y-27.166667 Z1.529412 F1000
G01 X45.833333 Y-27.166667 Z1.803922 F1000
G01 X46.055556 Y-27.166667 Z1.882353 F1000
G01 X46.5 Y-27.166667 Z1.882353 F1000
G01 X46.722222 Y-27.166667 Z3.215686 F1000
G01 X46.944444 Y-27.166667 Z6.039216 F1000
G01 X47.166667 Y-27.166667 Z7.607843 F1000
G01 X48.277778 Y-27.166667 Z7.607843 F1000
G01 X48.5 Y-27.166667 Z7.529412 F1000
G01 X49.166667 Y-27.166667 Z7.529412 F1000
G01 X49.388889 Y-27.166667 Z7.72549 F1000
G01 X50.277778 Y-27.166667 Z7.72549 F1000
G01 X50.5 Y-27.166667 Z7.529412 F1000
G01 X50.722222 Y-27.166667 Z7.568627 F1000
G01 X51.833333 Y-27.166667 Z7.568627 F1000
G01 X52.055556 Y-27.166667 Z7.372549 F1000
G01 X52.277778 Y-27.166667 Z5.019608 F1000
G01 X52.5 Y-27.166667 Z2.509804 F1000
G01 X52.722222 Y-27.166667 Z1.764706 F1000
G01 X52.944444 Y-27.166667 Z1.686275 F1000
G01 X53.611111 Y-27.166667 Z1.686275 F1000
G01 X53.833333 Y-27.166667 Z1.568627 F1000
G01 X54.722222 Y-27.166667 Z1.568627 F1000
G01 X54.944444 Y-27.166667 Z1.529412 F1000
G01 X63.388889 Y-27.166667 Z1.529412 F1000
G01 X63.611111 Y-27.166667 Z1.607843 F1000
G01 X64.5 Y-27.166667 Z1.607843 F1000
G01 X64.722222 Y-27.166667 Z1.647059 F1000
G01 X64.944444 Y-27.166667 Z1.686275 F1000
G01 X65.166667 Y-27.166667 Z1.686275 F1000
G01 X65.388889 Y-27.166667 Z2 F1000
G01 X66.277778 Y-27.166667 Z2 F1000
G01 X66.5 Y-27.166667 Z3.254902 F1000
G01 X66.722222 Y-27.166667 Z5.490196 F1000
G01 X66.944444 Y-27.166667 Z7.372549 F1000
G01 X67.166667 Y-27.166667 Z9.019608 F1000
G01 X67.388889 Y-27.166667 Z9.803922 F1000
G01 X67.611111 Y-27.166667 Z10 F1000
G01 X99.611111 Y-27.166667 Z10 F1000
G01 X99.611111 Y-27.388889 Z10 F1000
G01 X99.611111 Y-27.611111 Z10 F1000
G01 X99.611111 Y-27.833333 Z10 F1000
G01 X68.722222 Y-27.833333 Z10 F1000
G01 X68.5 Y-27.833333 Z8.431373 F1000
G01 X68.277778 Y-27.833333 Z5.960784 F1000
G01 X68.055556 Y-27.833333 Z3.568627 F1000
G01 X67.833333 Y-27.833333 Z1.882353 F1000
G01 X67.166667 Y-27.833333 Z1.882353 F1000
G01 X66.944444 Y-27.833333 Z1.843137 F1000
G01 X66.722222 Y-27.833333 Z1.803922 F1000
G01 X65.388889 Y-27.833333 Z1.803922 F1000
G01 X65.166667 Y-27.833333 Z1.529412 F1000
G01 X64.944444 Y-27.833333 Z1.568627 F1000
G01 X64.722222 Y-27.833333 Z1.568627 F1000
G01 X64.5 Y-27.833333 Z1.607843 F1000
G01 X63.611111 Y-27.833333 Z1.607843 F1000
G01 X63.388889 Y-27.833333 Z1.529412 F1000
G01 X54.944444 Y-27.833333 Z1.529412 F1000
G01 X54.722222 Y-27.833333 Z1.568627 F1000
G01 X53.833333 Y-27.833333 Z1.568627 F1000
G01 X53.611111 Y-27.833333 Z1.686275 F1000
G01 X52.944444 Y-27.833333 Z1.686275 F1000
G01 X52.722222 Y-27.833333 Z1.764706 F1000
G01 X51.833333 Y-27.833333 Z1.764706 F1000
G01 X51.611111 Y-27.833333 Z1.686275 F1000
G01 X51.166667 Y-27.833333 Z1.686275 F1000
G01 X50.944444 Y-27.833333 Z1.72549 F1000
G01 X49.833333 Y-27.833333 Z1.72549 F1000
G01 X49.611111 Y-27.833333 Z1.647059 F1000
G01 X48.055556 Y-27.833333 Z1.647059 F1000
G01 X47.833333 Y-27.833333 Z1.686275 F1000
G01 X47.611111 Y-27.833333 Z1.72549 F1000
G01 X47.388889 Y-27.833333 Z1.803922 F1000
G01 X45.833333 Y-27.833333 Z1.803922 F1000
G01 X45.611111 Y-27.833333 Z1.529412 F1000
G01 X43.166667 Y-27.833333 Z1.529412 F1000
G01 X42.944444 Y-27.833333 Z1.647059 F1000
G01 X42.055556 Y-27.833333 Z1.647059 F1000
G01 X41.833333 Y-27.833333 Z1.607843 F1000
G01 X41.611111 Y-27.833333 Z1.607843 F1000
G01 X41.388889 Y-27.833333 Z1.647059 F1000
G01 X40.944444 Y-27.833333 Z1.647059 F1000
G01 X40.722222 Y-27.833333 Z2.705882 F1000
G01 X40.5 Y-27.833333 Z6.54902 F1000
G01 X40.277778 Y-27.833333 Z10 F1000
G01 X38.944444 Y-27.833333 Z10 F1000
G01 X38.722222 Y-27.833333 Z9.960784 F1000
G01 X37.833333 Y-27.833333 Z9.960784 F1000
G01 X37.611111 Y-27.833333 Z10 F1000
G01 X0.277778 Y-27.833333 Z10 F1000
G01 X0.277778 Y-28.055556 Z10 F1000
G01 X0.277778 Y-28.277778 Z10 F1000
G01 X0.277778 Y-28.5 Z10 F1000
G01 X34.722222 Y-28.5 Z10 F1000
G01 X34.944444 Y-28.5 Z9.960784 F1000
G01 X35.166667 Y-28.5 Z10 F1000
G01 X36.055556 Y-28.5 Z10 F1000
G01 X36.277778 Y-28.5 Z9.960784 F1000
G01 X36.5 Y-28.5 Z10 F1000
G01 X40.5 Y-28.5 Z10 F1000
G01 X40.722222 Y-28.5 Z8.980392 F1000
G01 X40.944444 Y-28.5 Z5.960784 F1000
G01 X41.166667 Y-28.5 Z2.156863 F1000
G01 X41.388889 Y-28.5 Z1.882353 F1000
G01 X41.611111 Y-28.5 Z1.882353 F1000
G01 X41.833333 Y-28.5 Z1.921569 F1000
G01 X42.722222 Y-28.5 Z1.921569 F1000
G01 X42.944444 Y-28.5 Z1.803922 F1000
G01 X43.166667 Y-28.5 Z1.803922 F1000
G01 X43.388889 Y-28.5 Z1.686275 F1000
G01 X44.055556 Y-28.5 Z1.686275 F1000
G01 X44.277778 Y-28.5 Z1.647059 F1000
G01 X44.5 Y-28.5 Z1.568627 F1000
G01 X45.611111 Y-28.5 Z1.568627 F1000
G01 X45.833333 Y-28.5 Z1.686275 F1000
G01 X47.833333 Y-28.5 Z1.686275 F1000
G01 X48.055556 Y-28.5 Z1.568627 F1000
G01 X48.277778 Y-28.5 Z1.568627 F1000
G01 X48.5 Y-28.5 Z1.529412 F1000
G01 X49.388889 Y-28.5 Z1.529412 F1000
G01 X49.611111 Y-28.5 Z1.607843 F1000
G01 X49.833333 Y-28.5 Z1.647059 F1000
G01 X50.722222 Y-28.5 Z1.647059 F1000
G01 X50.944444 Y-28.5 Z1.686275 F1000
G01 X51.833333 Y-28.5 Z1.686275 F1000
G01 X52.055556 Y-28.5 Z1.607843 F1000
G01 X53.611111 Y-28.5 Z1.607843 F1000
G01 X53.833333 Y-28.5 Z1.568627 F1000
G01 X54.722222 Y-28.5 Z1.568627 F1000
G01 X54.944444 Y-28.5 Z1.529412 F1000
G01 X56.277778 Y-28.5 Z1.529412 F1000
G01 X56.5 Y-28.5 Z1.647059 F1000
G01 X56.944444 Y-28.5 Z1.647059 F1000
G01 X57.166667 Y-28.5 Z1.686275 F1000
G01 X57.611111 Y-28.5 Z1.686275 F1000
G01 X57.833333 Y-28.5 Z1.764706 F1000
G01 X58.055556 Y-28.5 Z1.764706 F1000
G01 X58.277778 Y-28.5 Z1.960784 F1000
G01 X59.166667 Y-28.5 Z1.960784 F1000
G01 X59.388889 Y-28.5 Z1.72549 F1000
G01 X59.611111 Y-28.5 Z1.843137 F1000
G01 X59.833333 Y-28.5 Z2 F1000
G01 X60.722222 Y-28.5 Z2 F1000
G01 X60.944444 Y-28.5 Z1.607843 F1000
G01 X61.388889 Y-28.5 Z1.607843 F1000
G01 X61.611111 Y-28.5 Z1.647059 F1000
G01 X61.833333 Y-28.5 Z1.882353 F1000
G01 X62.722222 Y-28.5 Z1.882353 F1000
G01 X62.944444 Y-28.5 Z1.803922 F1000
G01 X63.388889 Y-28.5 Z1.803922 F1000
G01 X63.611111 Y-28.5 Z1.764706 F1000
G01 X63.833333 Y-28.5 Z1.686275 F1000
G01 X64.055556 Y-28.5 Z1.607843 F1000
G01 X64.277778 Y-28.5 Z1.686275 F1000
G01 X65.611111 Y-28.5 Z1.686275 F1000
G01 X65.833333 Y-28.5 Z1.72549 F1000
G01 X66.722222 Y-28.5 Z1.72549 F1000
G01 X66.944444 Y-28.5 Z1.843137 F1000
G01 X67.833333 Y-28.5 Z1.843137 F1000
G01 X68.055556 Y-28.5 Z1.72549 F1000
G01 X68.277778 Y-28.5 Z1.843137 F1000
G01 X68.722222 Y-28.5 Z1.843137 F1000
G01 X68.944444 Y-28.5 Z1.882353 F1000
G01 X69.166667 Y-28.5 Z2.156863 F1000
G01 X69.388889 Y-28.5 Z3.960784 F1000
G01 X69.611111 Y-28.5 Z5.960784 F1000
G01 X69.833333 Y-28.5 Z7.843137 F1000
G01 X70.055556 Y-28.5 Z9.254902 F1000
G01 X70.277778 Y-28.5 Z9.843137 F1000
G01 X70.5 Y-28.5 Z9.882353 F1000
G01 X70.944444 Y-28.5 Z9.882353 F1000
G01 X71.166667 Y-28.5 Z9.921569 F1000
G01 X71.388889 Y-28.5 Z9.921569 F1000
G01 X71.611111 Y-28.5 Z10 F1000
G01 X99.611111 Y-28.5 Z10 F1000
G01 X99.611111 Y-28.722222 Z10 F1000
G01 X99.611111 Y-28.944444 Z10 F1000
G01 X99.611111 Y-29.166667 Z10 F1000
G01 X71.611111 Y-29.166667 Z10 F1000
G01 X71.388889 Y-29.166667 Z9.686275 F1000
G01 X71.166667 Y-29.166667 Z9.686275 F1000
G01 X70.944444 Y-29.166667 Z8.196078 F1000
G01 X70.722222 Y-29.166667 Z5.843137 F1000
G01 X70.5 Y-29.166667 Z2.980392 F1000
G01 X70.277778 Y-29.166667 Z2.117647 F1000
G01 X70.055556 Y-29.166667 Z1.921569 F1000
G01 X69.611111 Y-29.166667 Z1.921569 F1000
G01 X69.388889 Y-29.166667 Z1.882353 F1000
G01 X68.944444 Y-29.166667 Z1.882353 F1000
G01 X68.722222 Y-29.166667 Z1.529412 F1000
G01 X68.055556 Y-29.166667 Z1.529412 F1000
G01 X67.833333 Y-29.166667 Z1.843137 F1000
G01 X66.944444 Y-29.166667 Z1.843137 F1000
G01 X66.722222 Y-29.166667 Z1.764706 F1000
G01 X66.277778 Y-29.166667 Z1.764706 F1000
G01 X66.055556 Y-29.166667 Z1.843137 F1000
G01 X65.166667 Y-29.166667 Z1.843137 F1000
G01 X64.944444 Y-29.166667 Z1.72549 F1000
G01 X64.722222 Y-29.166667 Z1.686275 F1000
G01 X64.5 Y-29.166667 Z1.764706 F1000
G01 X63.833333 Y-29.166667 Z1.764706 F1000
G01 X63.611111 Y-29.166667 Z1.843137 F1000
G01 X62.5 Y-29.166667 Z1.843137 F1000
G01 X62.277778 Y-29.166667 Z1.803922 F1000
G01 X62.055556 Y-29.166667 Z1.764706 F1000
G01 X61.833333 Y-29.166667 Z1.764706 F1000
G01 X61.611111 Y-29.166667 Z1.607843 F1000
G01 X61.388889 Y-29.166667 Z1.607843 F1000
G01 X61.166667 Y-29.166667 Z1.686275 F1000
G01 X60.944444 Y-29.166667 Z1.764706 F1000
G01 X60.722222 Y-29.166667 Z2 F1000
G01 X59.833333 Y-29.166667 Z2 F1000
G01 X59.611111 Y-29.166667 Z1.882353 F1000
G01 X59.388889 Y-29.166667 Z2.705882 F1000
G01 X59.166667 Y-29.166667 Z4.470588 F1000
G01 X58.277778 Y-29.166667 Z4.470588 F1000
G01 X58.055556 Y-29.166667 Z3.568627 F1000
G01 X57.833333 Y-29.166667 Z1.921569 F1000
G01 X57.388889 Y-29.166667 Z1.921569 F1000
G01 X57.166667 Y-29.166667 Z1.686275 F1000
G01 X56.722222 Y-29.166667 Z1.686275 F1000
G01 X56.5 Y-29.166667 Z1.607843 F1000
G01 X56.277778 Y-29.166667 Z1.529412 F1000
G01 X46.722222 Y-29.166667 Z1.529412 F1000
G01 X46.5 Y-29.166667 Z1.568627 F1000
G01 X44.944444 Y-29.166667 Z1.568627 F1000
G01 X44.722222 Y-29.166667 Z1.607843 F1000
G01 X44.5 Y-29.166667 Z1.607843 F1000
G01 X44.277778 Y-29.166667 Z1.647059 F1000
G01 X44.055556 Y-29.166667 Z1.843137 F1000
G01 X43.833333 Y-29.166667 Z1.960784 F1000
G01 X43.166667 Y-29.166667 Z1.960784 F1000
G01 X42.944444 Y-29.166667 Z2 F1000
G01 X42.055556 Y-29.166667 Z2 F1000
G01 X41.833333 Y-29.166667 Z2.784314 F1000
G01 X41.611111 Y-29.166667 Z5.647059 F1000
G01 X41.388889 Y-29.166667 Z8.54902 F1000
G01 X41.166667 Y-29.166667 Z9.372549 F1000
G01 X40.944444 Y-29.166667 Z10 F1000
G01 X38.944444 Y-29.166667 Z10 F1000
G01 X38.722222 Y-29.166667 Z9.960784 F1000
G01 X37.833333 Y-29.166667 Z9.960784 F1000
G01 X37.611111 Y-29.166667 Z10 F1000
G01 X36.5 Y-29.166667 Z10 F1000
G01 X36.277778 Y-29.166667 Z9.921569 F1000
G01 X36.055556 Y-29.166667 Z10 F1000
G01 X35.166667 Y-29.166667 Z10 F1000
G01 X34.944444 Y-29.166667 Z9.921569 F1000
G01 X34.722222 Y-29.166667 Z10 F1000
G01 X0.277778 Y-29.166667 Z10 F1000
G01 X0.277778 Y-29.388889 Z10 F1000
G01 X0.277778 Y-29.611111 Z10 F1000
G01 X0.277778 Y-29.833333 Z10 F1000
G01 X34.722222 Y-29.833333 Z10 F1000
G01 X34.944444 Y-29.833333 Z9.960784 F1000
G01 X35.166667 Y-29.833333 Z10 F1000
G01 X37.388889 Y-29.833333 Z10 F1000
G01 X37.611111 Y-29.833333 Z9.960784 F1000
G01 X37.833333 Y-29.833333 Z9.960784 F1000
G01 X38.055556 Y-29.833333 Z10 F1000
G01 X41.388889 Y-29.833333 Z10 F1000
G01 X41.611111 Y-29.833333 Z9.921569 F1000
G01 X42.055556 Y-29.833333 Z9.921569 F1000
G01 X42.277778 Y-29.833333 Z9.686275 F1000
G01 X42.5 Y-29.833333 Z9.019608 F1000
G01 X42.722222 Y-29.833333 Z8 F1000
G01 X42.944444 Y-29.833333 Z7.294118 F1000
G01 X43.166667 Y-29.833333 Z6.470588 F1000
G01 X43.388889 Y-29.833333 Z5.411765 F1000
G01 X43.611111 Y-29.833333 Z4.196078 F1000
G01 X43.833333 Y-29.833333 Z3.529412 F1000
G01 X44.055556 Y-29.833333 Z3.333333 F1000
G01 X44.277778 Y-29.833333 Z3.137255 F1000
G01 X44.5 Y-29.833333 Z2.666667 F1000
G01 X44.722222 Y-29.833333 Z2.235294 F1000
G01 X44.944444 Y-29.833333 Z1.568627 F1000
G01 X46.5 Y-29.833333 Z1.568627 F1000
G01 X46.722222 Y-29.833333 Z1.529412 F1000
G01 X51.166667 Y-29.833333 Z1.529412 F1000
G01 X51.388889 Y-29.833333 Z1.72549 F1000
G01 X52.277778 Y-29.833333 Z1.72549 F1000
G01 X52.5 Y-29.833333 Z1.686275 F1000
G01 X52.722222 Y-29.833333 Z1.568627 F1000
G01 X53.166667 Y-29.833333 Z1.568627 F1000
G01 X53.388889 Y-29.833333 Z1.686275 F1000
G01 X54.277778 Y-29.833333 Z1.686275 F1000
G01 X54.5 Y-29.833333 Z1.568627 F1000
G01 X55.166667 Y-29.833333 Z1.568627 F1000
G01 X55.388889 Y-29.833333 Z1.607843 F1000
G01 X55.611111 Y-29.833333 Z1.764706 F1000
G01 X56.5 Y-29.833333 Z1.764706 F1000
G01 X56.722222 Y-29.833333 Z1.882353 F1000
G01 X57.166667 Y-29.833333 Z1.882353 F1000
G01 X57.388889 Y-29.833333 Z2 F1000
G01 X57.833333 Y-29.833333 Z2 F1000
G01 X58.055556 Y-29.833333 Z3.921569 F1000
G01 X58.277778 Y-29.833333 Z6.431373 F1000
G01 X58.5 Y-29.833333 Z7.686275 F1000
G01 X58.722222 Y-29.833333 Z8.54902 F1000
G01 X58.944444 Y-29.833333 Z9.019608 F1000
G01 X59.833333 Y-29.833333 Z9.019608 F1000
G01 X60.055556 Y-29.833333 Z7.529412 F1000
G01 X60.277778 Y-29.833333 Z6.313725 F1000
G01 X60.5 Y-29.833333 Z4.862745 F1000
G01 X60.722222 Y-29.833333 Z2.901961 F1000
G01 X60.944444 Y-29.833333 Z2.509804 F1000
G01 X61.166667 Y-29.833333 Z1.72549 F1000
G01 X61.388889 Y-29.833333 Z1.607843 F1000
G01 X61.611111 Y-29.833333 Z1.607843 F1000
G01 X61.833333 Y-29.833333 Z1.882353 F1000
G01 X62.055556 Y-29.833333 Z2.196078 F1000
G01 X62.277778 Y-29.833333 Z2.784314 F1000
G01 X62.5 Y-29.833333 Z3.45098 F1000
G01 X62.722222 Y-29.833333 Z4.313725 F1000
G01 X62.944444 Y-29.833333 Z5.372549 F1000
G01 X63.166667 Y-29.833333 Z6.470588 F1000
G01 X63.388889 Y-29.833333 Z7.215686 F1000
G01 X63.611111 Y-29.833333 Z8.039216 F1000
G01 X63.833333 Y-29.833333 Z8.313725 F1000
G01 X64.055556 Y-29.833333 Z8.705882 F1000
G01 X64.277778 Y-29.833333 Z8.980392 F1000
G01 X65.388889 Y-29.833333 Z8.980392 F1000
G01 X65.611111 Y-29.833333 Z8.705882 F1000
G01 X65.833333 Y-29.833333 Z8.313725 F1000
G01 X66.055556 Y-29.833333 Z8.039216 F1000
G01 X66.277778 Y-29.833333 Z7.529412 F1000
G01 X66.5 Y-29.833333 Z5.607843 F1000
G01 X66.722222 Y-29.833333 Z3.333333 F1000
G01 X66.944444 Y-29.833333 Z1.843137 F1000
G01 X67.166667 Y-29.833333 Z2.039216 F1000
G01 X68.055556 Y-29.833333 Z2.039216 F1000
G01 X68.277778 Y-29.833333 Z1.529412 F1000
G01 X68.5 Y-29.833333 Z1.647059 F1000
G01 X68.722222 Y-29.833333 Z1.647059 F1000
G01 X68.944444 Y-29.833333 Z1.764706 F1000
G01 X70.277778 Y-29.833333 Z1.764706 F1000
G01 X70.5 Y-29.833333 Z2.196078 F1000
G01 X71.388889 Y-29.833333 Z2.196078 F1000
G01 X71.611111 Y-29.833333 Z5.607843 F1000
G01 X71.833333 Y-29.833333 Z8.901961 F1000
G01 X72.055556 Y-29.833333 Z9.882353 F1000
G01 X72.277778 Y-29.833333 Z10 F1000
G01 X99.611111 Y-29.833333 Z10 F1000
G01 X99.611111 Y-30.055556 Z10 F1000
G01 X99.611111 Y-30.277778 Z10 F1000
G01 X99.611111 Y-30.5 Z10 F1000
G01 X72.944444 Y-30.5 Z10 F1000
G01 X72.722222 Y-30.5 Z9.333333 F1000
G01 X72.5 Y-30.5 Z8.784314 F1000
G01 X72.277778 Y-30.5 Z4.823529 F1000
G01 X72.055556 Y-30.5 Z2.901961 F1000
G01 X71.833333 Y-30.5 Z3.411765 F1000
G01 X71.611111 Y-30.5 Z3.686275 F1000
G01 X71.388889 Y-30.5 Z4.823529 F1000
G01 X71.166667 Y-30.5 Z4.941176 F1000
G01 X70.944444 Y-30.5 Z5.058824 F1000
G01 X69.833333 Y-30.5 Z5.058824 F1000
G01 X69.611111 Y-30.5 Z4.862745 F1000
G01 X69.388889 Y-30.5 Z4.431373 F1000
G01 X69.166667 Y-30.5 Z3.882353 F1000
G01 X68.944444 Y-30.5 Z3.529412 F1000
G01 X68.722222 Y-30.5 Z2.078431 F1000
G01 X68.5 Y-30.5 Z2 F1000
G01 X68.277778 Y-30.5 Z2 F1000
G01 X68.055556 Y-30.5 Z2.039216 F1000
G01 X67.833333 Y-30.5 Z2.039216 F1000
G01 X67.611111 Y-30.5 Z2.823529 F1000
G01 X67.388889 Y-30.5 Z5.490196 F1000
G01 X67.166667 Y-30.5 Z8.039216 F1000
G01 X66.944444 Y-30.5 Z9.764706 F1000
G01 X66.722222 Y-30.5 Z10 F1000
G01 X61.611111 Y-30.5 Z10 F1000
G01 X61.388889 Y-30.5 Z9.764706 F1000
G01 X61.166667 Y-30.5 Z9.764706 F1000
G01 X60.944444 Y-30.5 Z9.843137 F1000
G01 X60.722222 Y-30.5 Z9.921569 F1000
G01 X60.5 Y-30.5 Z10 F1000
G01 X59.611111 Y-30.5 Z10 F1000
G01 X59.388889 Y-30.5 Z9.647059 F1000
G01 X59.166667 Y-30.5 Z9.333333 F1000
G01 X58.944444 Y-30.5 Z9.019608 F1000
G01 X58.722222 Y-30.5 Z8.54902 F1000
G01 X58.5 Y-30.5 Z7.686275 F1000
G01 X58.277778 Y-30.5 Z5.176471 F1000
G01 X58.055556 Y-30.5 Z2.352941 F1000
G01 X57.833333 Y-30.5 Z2 F1000
G01 X57.388889 Y-30.5 Z2 F1000
G01 X57.166667 Y-30.5 Z1.882353 F1000
G01 X56.722222 Y-30.5 Z1.882353 F1000
G01 X56.5 Y-30.5 Z1.764706 F1000
G01 X54.5 Y-30.5 Z1.764706 F1000
G01 X54.277778 Y-30.5 Z1.803922 F1000
G01 X53.833333 Y-30.5 Z1.803922 F1000
G01 X53.611111 Y-30.5 Z1.843137 F1000
G01 X52.722222 Y-30.5 Z1.843137 F1000
G01 X52.5 Y-30.5 Z1.686275 F1000
G01 X52.277778 Y-30.5 Z1.72549 F1000
G01 X51.388889 Y-30.5 Z1.72549 F1000
G01 X51.166667 Y-30.5 Z1.647059 F1000
G01 X50.944444 Y-30.5 Z1.529412 F1000
G01 X46.722222 Y-30.5 Z1.529412 F1000
G01 X46.5 Y-30.5 Z1.568627 F1000
G01 X44.944444 Y-30.5 Z1.568627 F1000
G01 X44.722222 Y-30.5 Z3.019608 F1000
G01 X44.5 Y-30.5 Z5.294118 F1000
G01 X44.277778 Y-30.5 Z7.647059 F1000
G01 X44.055556 Y-30.5 Z8.745098 F1000
G01 X43.833333 Y-30.5 Z9.411765 F1000
G01 X43.611111 Y-30.5 Z10 F1000
G01 X38.055556 Y-30.5 Z10 F1000
G01 X37.833333 Y-30.5 Z9.960784 F1000
G01 X37.611111 Y-30.5 Z9.960784 F1000
G01 X37.388889 Y-30.5 Z9.764706 F1000
G01 X37.166667 Y-30.5 Z9.72549 F1000
G01 X36.944444 Y-30.5 Z9.72549 F1000
G01 X36.722222 Y-30.5 Z8.470588 F1000
G01 X36.5 Y-30.5 Z9.372549 F1000
G01 X36.277778 Y-30.5 Z10 F1000
G01 X35.166667 Y-30.5 Z10 F1000
G01 X34.944444 Y-30.5 Z9.960784 F1000
G01 X34.722222 Y-30.5 Z10 F1000
G01 X0.277778 Y-30.5 Z10 F1000
G01 X0.277778 Y-30.722222 Z10 F1000
G01 X0.277778 Y-30.944444 Z10 F1000
G01 X0.277778 Y-31.166667 Z10 F1000
G01 X34.722222 Y-31.166667 Z10 F1000
G01 X34.944444 Y-31.166667 Z9.960784 F1000
G01 X35.166667 Y-31.166667 Z10 F1000
G01 X36.5 Y-31.166667 Z10 F1000
G01 X36.722222 Y-31.166667 Z9.019608 F1000
G01 X36.944444 Y-31.166667 Z5.098039 F1000
G01 X37.166667 Y-31.166667 Z2 F1000
G01 X37.388889 Y-31.166667 Z2.901961 F1000
G01 X37.611111 Y-31.166667 Z4.470588 F1000
G01 X37.833333 Y-31.166667 Z5.960784 F1000
G01 X38.055556 Y-31.166667 Z7.372549 F1000
G01 X38.277778 Y-31.166667 Z8.627451 F1000
G01 X38.5 Y-31.166667 Z9.372549 F1000
G01 X38.722222 Y-31.166667 Z9.45098 F1000
G01 X38.944444 Y-31.166667 Z9.72549 F1000
G01 X39.166667 Y-31.166667 Z10 F1000
G01 X40.277778 Y-31.166667 Z10 F1000
G01 X40.5 Y-31.166667 Z9.921569 F1000
G01 X40.722222 Y-31.166667 Z9.960784 F1000
G01 X41.833333 Y-31.166667 Z9.960784 F1000
G01 X42.055556 Y-31.166667 Z10 F1000
G01 X43.611111 Y-31.166667 Z10 F1000
G01 X43.833333 Y-31.166667 Z9.411765 F1000
G01 X44.055556 Y-31.166667 Z8.745098 F1000
G01 X44.277778 Y-31.166667 Z7.647059 F1000
G01 X44.5 Y-31.166667 Z5.294118 F1000
G01 X44.722222 Y-31.166667 Z3.019608 F1000
G01 X44.944444 Y-31.166667 Z1.529412 F1000
G01 X50.944444 Y-31.166667 Z1.529412 F1000
G01 X51.166667 Y-31.166667 Z1.647059 F1000
G01 X51.833333 Y-31.166667 Z1.647059 F1000
G01 X52.055556 Y-31.166667 Z1.686275 F1000
G01 X52.277778 Y-31.166667 Z1.843137 F1000
G01 X52.5 Y-31.166667 Z1.882353 F1000
G01 X52.722222 Y-31.166667 Z1.882353 F1000
G01 X52.944444 Y-31.166667 Z4.27451 F1000
G01 X53.833333 Y-31.166667 Z4.27451 F1000
G01 X54.055556 Y-31.166667 Z3.764706 F1000
G01 X54.277778 Y-31.166667 Z2.196078 F1000
G01 X54.722222 Y-31.166667 Z2.196078 F1000
G01 X54.944444 Y-31.166667 Z1.882353 F1000
G01 X55.388889 Y-31.166667 Z1.882353 F1000
G01 X55.611111 Y-31.166667 Z1.764706 F1000
G01 X55.833333 Y-31.166667 Z1.647059 F1000
G01 X56.055556 Y-31.166667 Z1.647059 F1000
G01 X56.277778 Y-31.166667 Z1.607843 F1000
G01 X57.166667 Y-31.166667 Z1.607843 F1000
G01 X57.388889 Y-31.166667 Z1.529412 F1000
G01 X58.055556 Y-31.166667 Z1.529412 F1000
G01 X58.277778 Y-31.166667 Z1.843137 F1000
G01 X58.5 Y-31.166667 Z1.843137 F1000
G01 X58.722222 Y-31.166667 Z1.960784 F1000
G01 X58.944444 Y-31.166667 Z4.745098 F1000
G01 X59.166667 Y-31.166667 Z7.647059 F1000
G01 X59.388889 Y-31.166667 Z9.647059 F1000
G01 X59.611111 Y-31.166667 Z10 F1000
G01 X67.388889 Y-31.166667 Z10 F1000
G01 X67.611111 Y-31.166667 Z9.294118 F1000
G01 X67.833333 Y-31.166667 Z8.901961 F1000
G01 X68.055556 Y-31.166667 Z9.176471 F1000
G01 X68.277778 Y-31.166667 Z9.490196 F1000
G01 X68.5 Y-31.166667 Z9.803922 F1000
G01 X68.722222 Y-31.166667 Z10 F1000
G01 X70.055556 Y-31.166667 Z10 F1000
G01 X70.277778 Y-31.166667 Z9.960784 F1000
G01 X70.5 Y-31.166667 Z10 F1000
G01 X71.611111 Y-31.166667 Z10 F1000
G01 X71.833333 Y-31.166667 Z9.921569 F1000
G01 X72.055556 Y-31.166667 Z9.882353 F1000
G01 X72.722222 Y-31.166667 Z9.882353 F1000
G01 X72.944444 Y-31.166667 Z9.490196 F1000
G01 X73.166667 Y-31.166667 Z9.647059 F1000
G01 X73.388889 Y-31.166667 Z9.921569 F1000
G01 X73.611111 Y-31.166667 Z10 F1000
G01 X99.611111 Y-31.166667 Z10 F1000
G01 X99.611111 Y-31.388889 Z10 F1000
G01 X99.611111 Y-31.611111 Z10 F1000
G01 X99.611111 Y-31.833333 Z10 F1000
G01 X75.388889 Y-31.833333 Z10 F1000
G01 X75.166667 Y-31.833333 Z9.960784 F1000
G01 X74.944444 Y-31.833333 Z10 F1000
G01 X72.722222 Y-31.833333 Z10 F1000
G01 X72.5 Y-31.833333 Z9.960784 F1000
G01 X72.277778 Y-31.833333 Z9.960784 F1000
G01 X72.055556 Y-31.833333 Z10 F1000
G01 X67.833333 Y-31.833333 Z10 F1000
G01 X67.611111 Y-31.833333 Z9.960784 F1000
G01 X67.388889 Y-31.833333 Z10 F1000
G01 X60.5 Y-31.833333 Z10 F1000
G01 X60.277778 Y-31.833333 Z9.45098 F1000
G01 X60.055556 Y-31.833333 Z8.352941 F1000
G01 X59.833333 Y-31.833333 Z4.313725 F1000
G01 X59.611111 Y-31.833333 Z2.27451 F1000
G01 X59.388889 Y-31.833333 Z2.078431 F1000
G01 X59.166667 Y-31.833333 Z2 F1000
G01 X58.944444 Y-31.833333 Z1.843137 F1000
G01 X58.5 Y-31.833333 Z1.843137 F1000
G01 X58.277778 Y-31.833333 Z1.882353 F1000
G01 X57.388889 Y-31.833333 Z1.882353 F1000
G01 X57.166667 Y-31.833333 Z1.843137 F1000
G01 X56.944444 Y-31.833333 Z1.72549 F1000
G01 X56.722222 Y-31.833333 Z1.607843 F1000
G01 X56.277778 Y-31.833333 Z1.607843 F1000
G01 X56.055556 Y-31.833333 Z1.72549 F1000
G01 X55.833333 Y-31.833333 Z1.803922 F1000
G01 X55.611111 Y-31.833333 Z1.803922 F1000
G01 X55.388889 Y-31.833333 Z1.882353 F1000
G01 X55.166667 Y-31.833333 Z1.882353 F1000
G01 X54.944444 Y-31.833333 Z2.901961 F1000
G01 X54.722222 Y-31.833333 Z5.176471 F1000
G01 X54.5 Y-31.833333 Z7.607843 F1000
G01 X54.277778 Y-31.833333 Z9.764706 F1000
G01 X53.388889 Y-31.833333 Z9.764706 F1000
G01 X53.166667 Y-31.833333 Z8.784314 F1000
G01 X52.944444 Y-31.833333 Z5.882353 F1000
G01 X52.722222 Y-31.833333 Z1.882353 F1000
G01 X52.5 Y-31.833333 Z1.882353 F1000
G01 X52.277778 Y-31.833333 Z1.843137 F1000
G01 X52.055556 Y-31.833333 Z1.72549 F1000
G01 X51.166667 Y-31.833333 Z1.72549 F1000
G01 X50.944444 Y-31.833333 Z1.529412 F1000
G01 X44.944444 Y-31.833333 Z1.529412 F1000
G01 X44.722222 Y-31.833333 Z1.72549 F1000
G01 X44.5 Y-31.833333 Z1.764706 F1000
G01 X43.833333 Y-31.833333 Z1.764706 F1000
G01 X43.611111 Y-31.833333 Z1.882353 F1000
G01 X43.388889 Y-31.833333 Z2.078431 F1000
G01 X43.166667 Y-31.833333 Z2.156863 F1000
G01 X42.944444 Y-31.833333 Z2.313725 F1000
G01 X42.722222 Y-31.833333 Z2.745098 F1000
G01 X42.5 Y-31.833333 Z3.254902 F1000
G01 X42.277778 Y-31.833333 Z3.490196 F1000
G01 X41.611111 Y-31.833333 Z3.490196 F1000
G01 X41.388889 Y-31.833333 Z3.607843 F1000
G01 X40.5 Y-31.833333 Z3.607843 F1000
G01 X40.277778 Y-31.833333 Z3.176471 F1000
G01 X40.055556 Y-31.833333 Z2.784314 F1000
G01 X39.833333 Y-31.833333 Z2.313725 F1000
G01 X39.611111 Y-31.833333 Z1.960784 F1000
G01 X39.388889 Y-31.833333 Z1.843137 F1000
G01 X39.166667 Y-31.833333 Z1.843137 F1000
G01 X38.944444 Y-31.833333 Z1.882353 F1000
G01 X38.055556 Y-31.833333 Z1.882353 F1000
G01 X37.833333 Y-31.833333 Z1.843137 F1000
G01 X37.611111 Y-31.833333 Z1.843137 F1000
G01 X37.388889 Y-31.833333 Z2.078431 F1000
G01 X37.166667 Y-31.833333 Z6.078431 F1000
G01 X36.944444 Y-31.833333 Z9.137255 F1000
G01 X36.722222 Y-31.833333 Z10 F1000
G01 X0.277778 Y-31.833333 Z10 F1000
G01 X0.277778 Y-32.055556 Z10 F1000
G01 X0.277778 Y-32.277778 Z10 F1000
G01 X0.277778 Y-32.5 Z10 F1000
G01 X37.166667 Y-32.5 Z10 F1000
G01 X37.388889 Y-32.5 Z7.921569 F1000
G01 X37.611111 Y-32.5 Z4 F1000
G01 X37.833333 Y-32.5 Z1.921569 F1000
G01 X38.055556 Y-32.5 Z1.882353 F1000
G01 X38.944444 Y-32.5 Z1.882353 F1000
G01 X39.166667 Y-32.5 Z1.764706 F1000
G01 X41.166667 Y-32.5 Z1.764706 F1000
G01 X41.388889 Y-32.5 Z1.686275 F1000
G01 X41.611111 Y-32.5 Z1.607843 F1000
G01 X41.833333 Y-32.5 Z1.607843 F1000
G01 X42.055556 Y-32.5 Z1.686275 F1000
G01 X42.944444 Y-32.5 Z1.686275 F1000
G01 X43.166667 Y-32.5 Z1.529412 F1000
G01 X43.833333 Y-32.5 Z1.529412 F1000
G01 X44.055556 Y-32.5 Z1.568627 F1000
G01 X44.5 Y-32.5 Z1.568627 F1000
G01 X44.722222 Y-32.5 Z1.607843 F1000
G01 X46.5 Y-32.5 Z1.607843 F1000
G01 X46.722222 Y-32.5 Z1.529412 F1000
G01 X51.166667 Y-32.5 Z1.529412 F1000
G01 X51.388889 Y-32.5 Z1.568627 F1000
G01 X51.611111 Y-32.5 Z1.647059 F1000
G01 X52.722222 Y-32.5 Z1.647059 F1000
G01 X52.944444 Y-32.5 Z5.529412 F1000
G01 X53.166667 Y-32.5 Z8.784314 F1000
G01 X53.388889 Y-32.5 Z10 F1000
G01 X54.5 Y-32.5 Z10 F1000
G01 X54.722222 Y-32.5 Z9.803922 F1000
G01 X54.944444 Y-32.5 Z9.803922 F1000
G01 X55.166667 Y-32.5 Z9.607843 F1000
G01 X55.388889 Y-32.5 Z9.058824 F1000
G01 X55.611111 Y-32.5 Z7.411765 F1000
G01 X55.833333 Y-32.5 Z5.882353 F1000
G01 X56.055556 Y-32.5 Z4.078431 F1000
G01 X56.277778 Y-32.5 Z2.784314 F1000
G01 X56.5 Y-32.5 Z1.882353 F1000
G01 X56.722222 Y-32.5 Z1.843137 F1000
G01 X57.166667 Y-32.5 Z1.843137 F1000
G01 X57.388889 Y-32.5 Z1.882353 F1000
G01 X58.944444 Y-32.5 Z1.882353 F1000
G01 X59.166667 Y-32.5 Z1.764706 F1000
G01 X59.388889 Y-32.5 Z1.72549 F1000
G01 X59.833333 Y-32.5 Z1.72549 F1000
G01 X60.055556 Y-32.5 Z1.803922 F1000
G01 X60.277778 Y-32.5 Z1.882353 F1000
G01 X60.5 Y-32.5 Z3.176471 F1000
G01 X60.722222 Y-32.5 Z6.431373 F1000
G01 X60.944444 Y-32.5 Z9.45098 F1000
G01 X61.166667 Y-32.5 Z9.921569 F1000
G01 X61.388889 Y-32.5 Z10 F1000
G01 X69.611111 Y-32.5 Z10 F1000
G01 X69.833333 Y-32.5 Z9.960784 F1000
G01 X70.5 Y-32.5 Z9.960784 F1000
G01 X70.722222 Y-32.5 Z10 F1000
G01 X99.611111 Y-32.5 Z10 F1000
G01 X99.611111 Y-32.722222 Z10 F1000
G01 X99.611111 Y-32.944444 Z10 F1000
G01 X99.611111 Y-33.166667 Z10 F1000
G01 X62.055556 Y-33.166667 Z10 F1000
G01 X61.833333 Y-33.166667 Z9.843137 F1000
G01 X61.611111 Y-33.166667 Z9.372549 F1000
G01 X61.388889 Y-33.166667 Z6.941176 F1000
G01 X61.166667 Y-33.166667 Z3.490196 F1000
G01 X60.944444 Y-33.166667 Z2.156863 F1000
G01 X60.277778 Y-33.166667 Z2.156863 F1000
G01 X60.055556 Y-33.166667 Z1.960784 F1000
G01 X59.833333 Y-33.166667 Z1.960784 F1000
G01 X59.611111 Y-33.166667 Z1.843137 F1000
G01 X59.388889 Y-33.166667 Z2.588235 F1000
G01 X59.166667 Y-33.166667 Z3.411765 F1000
G01 X58.944444 Y-33.166667 Z4.980392 F1000
G01 X58.722222 Y-33.166667 Z5.843137 F1000
G01 X58.5 Y-33.166667 Z6.980392 F1000
G01 X58.277778 Y-33.166667 Z7.882353 F1000
G01 X58.055556 Y-33.166667 Z8.470588 F1000
G01 X57.833333 Y-33.166667 Z8.901961 F1000
G01 X57.611111 Y-33.166667 Z9.333333 F1000
G01 X57.388889 Y-33.166667 Z9.686275 F1000
G01 X56.944444 Y-33.166667 Z9.686275 F1000
G01 X56.722222 Y-33.166667 Z9.803922 F1000
G01 X56.277778 Y-33.166667 Z9.803922 F1000
G01 X56.055556 Y-33.166667 Z9.921569 F1000
G01 X55.833333 Y-33.166667 Z9.921569 F1000
G01 X55.611111 Y-33.166667 Z10 F1000
G01 X53.833333 Y-33.166667 Z10 F1000
G01 X53.611111 Y-33.166667 Z9.921569 F1000
G01 X53.388889 Y-33.166667 Z8.588235 F1000
G01 X53.166667 Y-33.166667 Z5.098039 F1000
G01 X52.944444 Y-33.166667 Z1.882353 F1000
G01 X52.722222 Y-33.166667 Z1.647059 F1000
G01 X51.611111 Y-33.166667 Z1.647059 F1000
G01 X51.388889 Y-33.166667 Z1.568627 F1000
G01 X51.166667 Y-33.166667 Z1.529412 F1000
G01 X46.722222 Y-33.166667 Z1.529412 F1000
G01 X46.5 Y-33.166667 Z1.607843 F1000
G01 X44.055556 Y-33.166667 Z1.607843 F1000
G01 X43.833333 Y-33.166667 Z1.529412 F1000
G01 X43.166667 Y-33.166667 Z1.529412 F1000
G01 X42.944444 Y-33.166667 Z1.568627 F1000
G01 X39.611111 Y-33.166667 Z1.568627 F1000
G01 X39.388889 Y-33.166667 Z1.764706 F1000
G01 X39.166667 Y-33.166667 Z1.921569 F1000
G01 X38.722222 Y-33.166667 Z1.921569 F1000
G01 X38.5 Y-33.166667 Z2.039216 F1000
G01 X38.277778 Y-33.166667 Z2.039216 F1000
G01 X38.055556 Y-33.166667 Z3.882353 F1000
G01 X37.833333 Y-33.166667 Z8 F1000
G01 X37.611111 Y-33.166667 Z9.647059 F1000
G01 X37.388889 Y-33.166667 Z10 F1000
G01 X0.277778 Y-33.166667 Z10 F1000
G01 X0.277778 Y-33.388889 Z10 F1000
G01 X0.277778 Y-33.611111 Z10 F1000
G01 X0.277778 Y-33.833333 Z10 F1000
G01 X38.055556 Y-33.833333 Z10 F1000
G01 X38.277778 Y-33.833333 Z9.45098 F1000
G01 X38.5 Y-33.833333 Z6.313725 F1000
G01 X38.722222 Y-33.833333 Z3.019608 F1000
G01 X38.944444 Y-33.833333 Z1.921569 F1000
G01 X39.166667 Y-33.833333 Z1.921569 F1000
G01 X39.388889 Y-33.833333 Z1.803922 F1000
G01 X39.611111 Y-33.833333 Z1.803922 F1000
G01 X39.833333 Y-33.833333 Z1.686275 F1000
G01 X40.055556 Y-33.833333 Z1.764706 F1000
G01 X40.944444 Y-33.833333 Z1.764706 F1000
G01 X41.166667 Y-33.833333 Z1.72549 F1000
G01 X41.388889 Y-33.833333 Z1.607843 F1000
G01 X42.944444 Y-33.833333 Z1.607843 F1000
G01 X43.166667 Y-33.833333 Z1.529412 F1000
G01 X43.833333 Y-33.833333 Z1.529412 F1000
G01 X44.055556 Y-33.833333 Z1.607843 F1000
G01 X45.388889 Y-33.833333 Z1.607843 F1000
G01 X45.611111 Y-33.833333 Z1.568627 F1000
G01 X45.833333 Y-33.833333 Z1.647059 F1000
G01 X46.277778 Y-33.833333 Z1.647059 F1000
G01 X46.5 Y-33.833333 Z1.72549 F1000
G01 X46.722222 Y-33.833333 Z1.764706 F1000
G01 X47.611111 Y-33.833333 Z1.764706 F1000
G01 X47.833333 Y-33.833333 Z1.686275 F1000
G01 X48.055556 Y-33.833333 Z1.607843 F1000
G01 X48.944444 Y-33.833333 Z1.607843 F1000
G01 X49.166667 Y-33.833333 Z1.568627 F1000
G01 X50.055556 Y-33.833333 Z1.568627 F1000
G01 X50.277778 Y-33.833333 Z1.529412 F1000
G01 X51.166667 Y-33.833333 Z1.529412 F1000
G01 X51.388889 Y-33.833333 Z1.686275 F1000
G01 X52.722222 Y-33.833333 Z1.686275 F1000
G01 X52.944444 Y-33.833333 Z1.882353 F1000
G01 X53.388889 Y-33.833333 Z1.882353 F1000
G01 X53.611111 Y-33.833333 Z5.137255 F1000
G01 X53.833333 Y-33.833333 Z8.27451 F1000
G01 X54.055556 Y-33.833333 Z9.45098 F1000
G01 X54.277778 Y-33.833333 Z9.647059 F1000
G01 X54.5 Y-33.833333 Z9.921569 F1000
G01 X54.944444 Y-33.833333 Z9.921569 F1000
G01 X55.166667 Y-33.833333 Z10 F1000
G01 X60.055556 Y-33.833333 Z10 F1000
G01 X60.277778 Y-33.833333 Z9.882353 F1000
G01 X60.5 Y-33.833333 Z8.745098 F1000
G01 X60.722222 Y-33.833333 Z7.568627 F1000
G01 X60.944444 Y-33.833333 Z6.54902 F1000
G01 X61.166667 Y-33.833333 Z4.666667 F1000
G01 X61.388889 Y-33.833333 Z2.588235 F1000
G01 X61.611111 Y-33.833333 Z2.588235 F1000
G01 X61.833333 Y-33.833333 Z7.019608 F1000
G01 X62.055556 Y-33.833333 Z9.764706 F1000
G01 X62.277778 Y-33.833333 Z10 F1000
G01 X99.611111 Y-33.833333 Z10 F1000
G01 X99.611111 Y-34.055556 Z10 F1000
G01 X99.611111 Y-34.277778 Z10 F1000
G01 X99.611111 Y-34.5 Z10 F1000
G01 X62.5 Y-34.5 Z10 F1000
G01 X62.277778 Y-34.5 Z9.529412 F1000
G01 X62.055556 Y-34.5 Z7.490196 F1000
G01 X61.833333 Y-34.5 Z9.254902 F1000
G01 X61.611111 Y-34.5 Z9.72549 F1000
G01 X61.166667 Y-34.5 Z9.72549 F1000
G01 X60.944444 Y-34.5 Z9.960784 F1000
G01 X60.722222 Y-34.5 Z10 F1000
G01 X55.166667 Y-34.5 Z10 F1000
G01 X54.944444 Y-34.5 Z9.45098 F1000
G01 X54.722222 Y-34.5 Z8.431373 F1000
G01 X54.5 Y-34.5 Z5.607843 F1000
G01 X54.277778 Y-34.5 Z3.764706 F1000
G01 X54.055556 Y-34.5 Z1.882353 F1000
G01 X53.388889 Y-34.5 Z1.882353 F1000
G01 X53.166667 Y-34.5 Z1.686275 F1000
G01 X52.944444 Y-34.5 Z1.686275 F1000
G01 X52.722222 Y-34.5 Z1.647059 F1000
G01 X51.388889 Y-34.5 Z1.647059 F1000
G01 X51.166667 Y-34.5 Z1.529412 F1000
G01 X50.277778 Y-34.5 Z1.529412 F1000
G01 X50.055556 Y-34.5 Z1.568627 F1000
G01 X49.833333 Y-34.5 Z1.568627 F1000
G01 X49.611111 Y-34.5 Z1.647059 F1000
G01 X48.722222 Y-34.5 Z1.647059 F1000
G01 X48.5 Y-34.5 Z1.764706 F1000
G01 X48.277778 Y-34.5 Z1.803922 F1000
G01 X45.833333 Y-34.5 Z1.803922 F1000
G01 X45.611111 Y-34.5 Z1.529412 F1000
G01 X43.166667 Y-34.5 Z1.529412 F1000
G01 X42.944444 Y-34.5 Z1.686275 F1000
G01 X42.055556 Y-34.5 Z1.686275 F1000
G01 X41.833333 Y-34.5 Z1.607843 F1000
G01 X41.611111 Y-34.5 Z1.607843 F1000
G01 X41.388889 Y-34.5 Z1.647059 F1000
G01 X41.166667 Y-34.5 Z1.882353 F1000
G01 X40.277778 Y-34.5 Z1.882353 F1000
G01 X40.055556 Y-34.5 Z1.843137 F1000
G01 X39.833333 Y-34.5 Z1.843137 F1000
G01 X39.611111 Y-34.5 Z2.862745 F1000
G01 X39.388889 Y-34.5 Z6 F1000
G01 X39.166667 Y-34.5 Z7.921569 F1000
G01 X38.944444 Y-34.5 Z9.686275 F1000
G01 X38.722222 Y-34.5 Z10 F1000
G01 X0.277778 Y-34.5 Z10 F1000
G01 X0.277778 Y-34.722222 Z10 F1000
G01 X0.277778 Y-34.944444 Z10 F1000
G01 X0.277778 Y-35.166667 Z10 F1000
G01 X39.166667 Y-35.166667 Z10 F1000
G01 X39.388889 Y-35.166667 Z9.921569 F1000
G01 X39.611111 Y-35.166667 Z9.921569 F1000
G01 X39.833333 Y-35.166667 Z9.72549 F1000
G01 X40.055556 Y-35.166667 Z9.333333 F1000
G01 X40.277778 Y-35.166667 Z8.392157 F1000
G01 X40.5 Y-35.166667 Z6.980392 F1000
G01 X40.722222 Y-35.166667 Z5.372549 F1000
G01 X40.944444 Y-35.166667 Z3.72549 F1000
G01 X41.166667 Y-35.166667 Z2.588235 F1000
G01 X41.388889 Y-35.166667 Z2.117647 F1000
G01 X41.611111 Y-35.166667 Z1.803922 F1000
G01 X41.833333 Y-35.166667 Z1.72549 F1000
G01 X42.277778 Y-35.166667 Z1.72549 F1000
G01 X42.5 Y-35.166667 Z1.686275 F1000
G01 X42.944444 Y-35.166667 Z1.686275 F1000
G01 X43.166667 Y-35.166667 Z1.647059 F1000
G01 X44.277778 Y-35.166667 Z1.647059 F1000
G01 X44.5 Y-35.166667 Z1.686275 F1000
G01 X44.722222 Y-35.166667 Z1.803922 F1000
G01 X44.944444 Y-35.166667 Z1.803922 F1000
G01 X45.166667 Y-35.166667 Z2.117647 F1000
G01 X45.388889 Y-35.166667 Z2.823529 F1000
G01 X45.611111 Y-35.166667 Z3.45098 F1000
G01 X45.833333 Y-35.166667 Z4.823529 F1000
G01 X46.055556 Y-35.166667 Z5.960784 F1000
G01 X46.277778 Y-35.166667 Z6.784314 F1000
G01 X47.388889 Y-35.166667 Z6.784314 F1000
G01 X47.611111 Y-35.166667 Z6.705882 F1000
G01 X47.833333 Y-35.166667 Z6.431373 F1000
G01 X48.055556 Y-35.166667 Z5.294118 F1000
G01 X48.277778 Y-35.166667 Z3.921569 F1000
G01 X48.5 Y-35.166667 Z2.156863 F1000
G01 X48.722222 Y-35.166667 Z1.843137 F1000
G01 X48.944444 Y-35.166667 Z1.882353 F1000
G01 X49.833333 Y-35.166667 Z1.882353 F1000
G01 X50.055556 Y-35.166667 Z1.568627 F1000
G01 X50.277778 Y-35.166667 Z1.607843 F1000
G01 X51.166667 Y-35.166667 Z1.607843 F1000
G01 X51.388889 Y-35.166667 Z1.568627 F1000
G01 X52.722222 Y-35.166667 Z1.568627 F1000
G01 X52.944444 Y-35.166667 Z1.686275 F1000
G01 X53.611111 Y-35.166667 Z1.686275 F1000
G01 X53.833333 Y-35.166667 Z1.764706 F1000
G01 X54.055556 Y-35.166667 Z1.843137 F1000
G01 X54.5 Y-35.166667 Z1.843137 F1000
G01 X54.722222 Y-35.166667 Z1.882353 F1000
G01 X54.944444 Y-35.166667 Z1.882353 F1000
G01 X55.166667 Y-35.166667 Z2.235294 F1000
G01 X55.388889 Y-35.166667 Z4.862745 F1000
G01 X55.611111 Y-35.166667 Z7.882353 F1000
G01 X55.833333 Y-35.166667 Z9.686275 F1000
G01 X56.055556 Y-35.166667 Z9.960784 F1000
G01 X56.722222 Y-35.166667 Z9.960784 F1000
G01 X56.944444 Y-35.166667 Z10 F1000
G01 X62.055556 Y-35.166667 Z10 F1000
G01 X62.277778 Y-35.166667 Z9.921569 F1000
G01 X62.5 Y-35.166667 Z9.921569 F1000
G01 X62.722222 Y-35.166667 Z10 F1000
G01 X99.611111 Y-35.166667 Z10 F1000
G01 X99.611111 Y-35.388889 Z10 F1000
G01 X99.611111 Y-35.611111 Z10 F1000
G01 X99.611111 Y-35.833333 Z10 F1000
G01 X56.944444 Y-35.833333 Z10 F1000
G01 X56.722222 Y-35.833333 Z9.843137 F1000
G01 X56.5 Y-35.833333 Z9.411765 F1000
G01 X56.277778 Y-35.833333 Z6.235294 F1000
G01 X56.055556 Y-35.833333 Z3.45098 F1000
G01 X55.833333 Y-35.833333 Z2.156863 F1000
G01 X55.611111 Y-35.833333 Z2.117647 F1000
G01 X55.388889 Y-35.833333 Z2.117647 F1000
G01 X55.166667 Y-35.833333 Z1.882353 F1000
